; ### Klipper Pressure Advance Calibration Pattern ###
;
; Original Marlin linear advance calibration tool by Sineos [https://github.com/Sineos]
; Heavily modified/rewritten by Andrew Ellis [https://github.com/AndrewEllis93]
;
; -------------------------------------------
; Generated: Sat Dec 03 2022 16:57:58 GMT+0100 (Ora standard dell’Europa centrale)
; -------------------------------------------
;
; Printer:
;  - Firmware: klipper
;  - Bed Shape: Rect
;  - Bed Size X: 180 mm
;  - Bed Size Y: 180 mm
;  - Origin Bed Center: false
;  - Extruder Name: 
;  - Travel Speed: 200 mm/s
;  - Nozzle Diameter: 0.4 mm
;
; Start / End G-code:
;  - Start G-code Type: standalone_temp_passing
;  - Hotend Temp: 230C
;  - Bed Temp: 80C
;
; Filament / Flow:
;  - Filament Diameter: 1.69 mm
;  - Extrusion Multiplier: 0.925
;  - Line Width: 115 %
;
; Retraction / Z Hop:
;  - Retraction Distance: 0.5 mm
;  - Retract Speed: 60 mm/s
;  - Unretract Speed: 60 mm/s
;  - Z Hop Enable: false
;
; First Layer Settings:
;  - First Layer Height: 0.25 mm
;  - First Layer Printing Speed: 3000 mm/s
;  - First Layer Fan: 0%
;  - Anchor Option: anchor_frame
;  - Anchor Frame Perimeters: 4
;  - Anchor Line Width: 140 %
;
; Print Settings:
;  - Layer Height: 0.2 mm
;  - Print Speed: 150 mm/s
;  - Acceleration: 2500 mm/s^2
;  - Fan Speed: 100%
;
; Pattern Settings (Using defaults):
;  - Print Height: 1 mm
;  - Perimeter Count: 3
;  - Side Length: 30 mm
;  - Spacing: 3 mm
;  - Corner Angle: 90 degrees 
;  - Printing Direction: 0 degree
;
; Pressure Advance Stepping:
;  - PA Start Value: 0
;  - PA End Value: 0.1
;  - PA Increment: 0.005
;  - Numbering: true
;  - No Leading Zeroes: false
;  - Show on LCD: true
;
; Calculated Values:
;  - Number of Patterns to Print: 21
;  - PA Values: 0, 0.005, 0.01, 0.015, 0.02, 0.025, 0.03, 0.035, 0.04, 0.045, 0.05, 0.055, 0.06, 0.065, 0.07, 0.075, 0.08, 0.085, 0.09, 0.095, 0.1
;  - Print Size X: 119.94 mm
;  - Print Size Y: 53.99 mm
;  - Total Number of Layers: 5
;
; Prepare printing
; 
START_PRINT EXTRUDER_TEMP=200 BED_TEMP=60
G21 ; Millimeter units
G90 ; Absolute XYZ
M83 ; Relative E
G92 E0 ; Reset extruder distance
;
;  Begin printing
;
M106 S0 ; Set fan speed
SET_VELOCITY_LIMIT ACCEL=2500 ; Set printing acceleration
G1 E-0.5 F3600 ; Retract
G0 Z5 F12000 ; Z raise
G0 X30.0275 Y63.0068 F12000 ; Move to start position
G0 Z0.25 F12000 ; Move to start layer height
G1 E0.5 F3600 ; Un-retract
SET_PRESSURE_ADVANCE ADVANCE=0 ; Set pressure advance to start value
M117 PA 0
G1 X30.0275 Y105.4332 E2.4493 F3000 ; Draw perimeter (up)
G1 X149.9725 Y105.4332 E6.9245 F3000 ; Draw perimeter (right)
G1 X149.9725 Y63.0068 E2.4493 F3000 ; Draw perimeter (down)
G1 X30.0275 Y63.0068 E6.9245 F3000 ; Draw perimeter (left)
G0 X30.5446 Y63.5239 F12000 ; Step inwards to print next perimeter
G1 X30.5446 Y104.9161 E2.3896 F3000 ; Draw perimeter (up)
G1 X149.4554 Y104.9161 E6.8648 F3000 ; Draw perimeter (right)
G1 X149.4554 Y63.5239 E2.3896 F3000 ; Draw perimeter (down)
G1 X30.5446 Y63.5239 E6.8648 F3000 ; Draw perimeter (left)
G0 X31.0617 Y64.041 F12000 ; Step inwards to print next perimeter
G1 X31.0617 Y104.399 E2.3299 F3000 ; Draw perimeter (up)
G1 X148.9383 Y104.399 E6.8051 F3000 ; Draw perimeter (right)
G1 X148.9383 Y64.041 E2.3299 F3000 ; Draw perimeter (down)
G1 X31.0617 Y64.041 E6.8051 F3000 ; Draw perimeter (left)
G0 X31.5787 Y64.558 F12000 ; Step inwards to print next perimeter
G1 X31.5787 Y103.882 E2.2702 F3000 ; Draw perimeter (up)
G1 X148.4213 Y103.882 E6.74539 F3000 ; Draw perimeter (right)
G1 X148.4213 Y64.558 E2.2702 F3000 ; Draw perimeter (down)
G1 X31.5787 Y64.558 E6.74539 F3000 ; Draw perimeter (left)
G1 E-0.5 F3600 ; Retract
G0 X30.0275 Y105.7693 F12000 ; Move to box start
G1 E0.5 F3600 ; Un-retract
G1 X30.0275 Y117.2864 E0.66489 F3000 ; Draw perimeter (up)
G1 X129.4462 Y117.2864 E5.7395 F3000 ; Draw perimeter (right)
G1 X129.4462 Y105.7693 E0.66489 F3000 ; Draw perimeter (down)
G1 X30.0275 Y105.7693 E5.7395 F3000 ; Draw perimeter (left)
G0 X30.5446 Y106.2864 F12000 ; Step inwards to print next perimeter
G1 X30.5446 Y116.7693 E0.60519 F3000 ; Draw perimeter (up)
G1 X128.9291 Y116.7693 E5.6798 F3000 ; Draw perimeter (right)
G1 X128.9291 Y106.2864 E0.60519 F3000 ; Draw perimeter (down)
G1 X30.5446 Y106.2864 E5.6798 F3000 ; Draw perimeter (left)
G0 X31.0617 Y106.8035 F12000 ; Step inwards to print next perimeter
G1 X31.0617 Y116.2522 E0.54548 F3000 ; Draw perimeter (up)
G1 X128.412 Y116.2522 E5.6201 F3000 ; Draw perimeter (right)
G1 X128.412 Y106.8035 E0.54548 F3000 ; Draw perimeter (down)
G1 X31.0617 Y106.8035 E5.6201 F3000 ; Draw perimeter (left)
G0 X31.5787 Y107.3205 F12000 ; Step inwards to print next perimeter
G1 X31.5787 Y115.7351 E0.48578 F3000 ; Draw perimeter (up)
G1 X127.8949 Y115.7351 E5.5604 F3000 ; Draw perimeter (right)
G1 X127.8949 Y107.3205 E0.48578 F3000 ; Draw perimeter (down)
G1 X31.5787 Y107.3205 E5.5604 F3000 ; Draw perimeter (left)
G0 X31.708 Y107.4498 F12000 ; Move to fill start
G0 X32.4393 Y107.4498 F12000 ; Move
G1 X31.708 Y108.1811 E0.0597 F3000 ; Fill
G0 X31.708 Y108.9123 F12000 ; Move
G1 X33.1705 Y107.4498 E0.11941 F3000 ; Fill
G0 X33.9018 Y107.4498 F12000 ; Move
G1 X31.708 Y109.6436 E0.17911 F3000 ; Fill
G0 X31.708 Y110.3749 F12000 ; Move
G1 X34.6331 Y107.4498 E0.23881 F3000 ; Fill
G0 X35.3643 Y107.4498 F12000 ; Move
G1 X31.708 Y111.1061 E0.29851 F3000 ; Fill
G0 X31.708 Y111.8374 F12000 ; Move
G1 X36.0956 Y107.4498 E0.35822 F3000 ; Fill
G0 X36.8268 Y107.4498 F12000 ; Move
G1 X31.708 Y112.5686 E0.41792 F3000 ; Fill
G0 X31.708 Y113.2999 F12000 ; Move
G1 X37.5581 Y107.4498 E0.47762 F3000 ; Fill
G0 X38.2894 Y107.4498 F12000 ; Move
G1 X31.708 Y114.0312 E0.53732 F3000 ; Fill
G0 X31.708 Y114.7624 F12000 ; Move
G1 X39.0206 Y107.4498 E0.59703 F3000 ; Fill
G0 X39.7519 Y107.4498 F12000 ; Move
G1 X31.708 Y115.4937 E0.65673 F3000 ; Fill
G0 X32.3271 Y115.6059 F12000 ; Move
G1 X40.4832 Y107.4498 E0.66589 F3000 ; Fill
G0 X41.2144 Y107.4498 F12000 ; Move
G1 X33.0584 Y115.6059 E0.66589 F3000 ; Fill
G0 X33.7896 Y115.6059 F12000 ; Move
G1 X41.9457 Y107.4498 E0.66589 F3000 ; Fill
G0 X42.6769 Y107.4498 F12000 ; Move
G1 X34.5209 Y115.6059 E0.66589 F3000 ; Fill
G0 X35.2521 Y115.6059 F12000 ; Move
G1 X43.4082 Y107.4498 E0.66589 F3000 ; Fill
G0 X44.1395 Y107.4498 F12000 ; Move
G1 X35.9834 Y115.6059 E0.66589 F3000 ; Fill
G0 X36.7147 Y115.6059 F12000 ; Move
G1 X44.8707 Y107.4498 E0.66589 F3000 ; Fill
G0 X45.602 Y107.4498 F12000 ; Move
G1 X37.4459 Y115.6059 E0.66589 F3000 ; Fill
G0 X38.1772 Y115.6059 F12000 ; Move
G1 X46.3332 Y107.4498 E0.66589 F3000 ; Fill
G0 X47.0645 Y107.4498 F12000 ; Move
G1 X38.9084 Y115.6059 E0.66589 F3000 ; Fill
G0 X39.6397 Y115.6059 F12000 ; Move
G1 X47.7958 Y107.4498 E0.66589 F3000 ; Fill
G0 X48.527 Y107.4498 F12000 ; Move
G1 X40.371 Y115.6059 E0.66589 F3000 ; Fill
G0 X41.1022 Y115.6059 F12000 ; Move
G1 X49.2583 Y107.4498 E0.66589 F3000 ; Fill
G0 X49.9895 Y107.4498 F12000 ; Move
G1 X41.8335 Y115.6059 E0.66589 F3000 ; Fill
G0 X42.5647 Y115.6059 F12000 ; Move
G1 X50.7208 Y107.4498 E0.66589 F3000 ; Fill
G0 X51.4521 Y107.4498 F12000 ; Move
G1 X43.296 Y115.6059 E0.66589 F3000 ; Fill
G0 X44.0273 Y115.6059 F12000 ; Move
G1 X52.1833 Y107.4498 E0.66589 F3000 ; Fill
G0 X52.9146 Y107.4498 F12000 ; Move
G1 X44.7585 Y115.6059 E0.66589 F3000 ; Fill
G0 X45.4898 Y115.6059 F12000 ; Move
G1 X53.6459 Y107.4498 E0.66589 F3000 ; Fill
G0 X54.3771 Y107.4498 F12000 ; Move
G1 X46.221 Y115.6059 E0.66589 F3000 ; Fill
G0 X46.9523 Y115.6059 F12000 ; Move
G1 X55.1084 Y107.4498 E0.66589 F3000 ; Fill
G0 X55.8396 Y107.4498 F12000 ; Move
G1 X47.6836 Y115.6059 E0.66589 F3000 ; Fill
G0 X48.4148 Y115.6059 F12000 ; Move
G1 X56.5709 Y107.4498 E0.66589 F3000 ; Fill
G0 X57.3022 Y107.4498 F12000 ; Move
G1 X49.1461 Y115.6059 E0.66589 F3000 ; Fill
G0 X49.8774 Y115.6059 F12000 ; Move
G1 X58.0334 Y107.4498 E0.66589 F3000 ; Fill
G0 X58.7647 Y107.4498 F12000 ; Move
G1 X50.6086 Y115.6059 E0.66589 F3000 ; Fill
G0 X51.3399 Y115.6059 F12000 ; Move
G1 X59.4959 Y107.4498 E0.66589 F3000 ; Fill
G0 X60.2272 Y107.4498 F12000 ; Move
G1 X52.0711 Y115.6059 E0.66589 F3000 ; Fill
G0 X52.8024 Y115.6059 F12000 ; Move
G1 X60.9585 Y107.4498 E0.66589 F3000 ; Fill
G0 X61.6897 Y107.4498 F12000 ; Move
G1 X53.5337 Y115.6059 E0.66589 F3000 ; Fill
G0 X54.2649 Y115.6059 F12000 ; Move
G1 X62.421 Y107.4498 E0.66589 F3000 ; Fill
G0 X63.1522 Y107.4498 F12000 ; Move
G1 X54.9962 Y115.6059 E0.66589 F3000 ; Fill
G0 X55.7274 Y115.6059 F12000 ; Move
G1 X63.8835 Y107.4498 E0.66589 F3000 ; Fill
G0 X64.6148 Y107.4498 F12000 ; Move
G1 X56.4587 Y115.6059 E0.66589 F3000 ; Fill
G0 X57.19 Y115.6059 F12000 ; Move
G1 X65.346 Y107.4498 E0.66589 F3000 ; Fill
G0 X66.0773 Y107.4498 F12000 ; Move
G1 X57.9212 Y115.6059 E0.66589 F3000 ; Fill
G0 X58.6525 Y115.6059 F12000 ; Move
G1 X66.8085 Y107.4498 E0.66589 F3000 ; Fill
G0 X67.5398 Y107.4498 F12000 ; Move
G1 X59.3837 Y115.6059 E0.66589 F3000 ; Fill
G0 X60.115 Y115.6059 F12000 ; Move
G1 X68.2711 Y107.4498 E0.66589 F3000 ; Fill
G0 X69.0023 Y107.4498 F12000 ; Move
G1 X60.8463 Y115.6059 E0.66589 F3000 ; Fill
G0 X61.5775 Y115.6059 F12000 ; Move
G1 X69.7336 Y107.4498 E0.66589 F3000 ; Fill
G0 X70.4649 Y107.4498 F12000 ; Move
G1 X62.3088 Y115.6059 E0.66589 F3000 ; Fill
G0 X63.0401 Y115.6059 F12000 ; Move
G1 X71.1961 Y107.4498 E0.66589 F3000 ; Fill
G0 X71.9274 Y107.4498 F12000 ; Move
G1 X63.7713 Y115.6059 E0.66589 F3000 ; Fill
G0 X64.5026 Y115.6059 F12000 ; Move
G1 X72.6586 Y107.4498 E0.66589 F3000 ; Fill
G0 X73.3899 Y107.4498 F12000 ; Move
G1 X65.2338 Y115.6059 E0.66589 F3000 ; Fill
G0 X65.9651 Y115.6059 F12000 ; Move
G1 X74.1212 Y107.4498 E0.66589 F3000 ; Fill
G0 X74.8524 Y107.4498 F12000 ; Move
G1 X66.6964 Y115.6059 E0.66589 F3000 ; Fill
G0 X67.4276 Y115.6059 F12000 ; Move
G1 X75.5837 Y107.4498 E0.66589 F3000 ; Fill
G0 X76.3149 Y107.4498 F12000 ; Move
G1 X68.1589 Y115.6059 E0.66589 F3000 ; Fill
G0 X68.8901 Y115.6059 F12000 ; Move
G1 X77.0462 Y107.4498 E0.66589 F3000 ; Fill
G0 X77.7775 Y107.4498 F12000 ; Move
G1 X69.6214 Y115.6059 E0.66589 F3000 ; Fill
G0 X70.3527 Y115.6059 F12000 ; Move
G1 X78.5087 Y107.4498 E0.66589 F3000 ; Fill
G0 X79.24 Y107.4498 F12000 ; Move
G1 X71.0839 Y115.6059 E0.66589 F3000 ; Fill
G0 X71.8152 Y115.6059 F12000 ; Move
G1 X79.9712 Y107.4498 E0.66589 F3000 ; Fill
G0 X80.7025 Y107.4498 F12000 ; Move
G1 X72.5464 Y115.6059 E0.66589 F3000 ; Fill
G0 X73.2777 Y115.6059 F12000 ; Move
G1 X81.4338 Y107.4498 E0.66589 F3000 ; Fill
G0 X82.165 Y107.4498 F12000 ; Move
G1 X74.009 Y115.6059 E0.66589 F3000 ; Fill
G0 X74.7402 Y115.6059 F12000 ; Move
G1 X82.8963 Y107.4498 E0.66589 F3000 ; Fill
G0 X83.6276 Y107.4498 F12000 ; Move
G1 X75.4715 Y115.6059 E0.66589 F3000 ; Fill
G0 X76.2028 Y115.6059 F12000 ; Move
G1 X84.3588 Y107.4498 E0.66589 F3000 ; Fill
G0 X85.0901 Y107.4498 F12000 ; Move
G1 X76.934 Y115.6059 E0.66589 F3000 ; Fill
G0 X77.6653 Y115.6059 F12000 ; Move
G1 X85.8213 Y107.4498 E0.66589 F3000 ; Fill
G0 X86.5526 Y107.4498 F12000 ; Move
G1 X78.3965 Y115.6059 E0.66589 F3000 ; Fill
G0 X79.1278 Y115.6059 F12000 ; Move
G1 X87.2839 Y107.4498 E0.66589 F3000 ; Fill
G0 X88.0151 Y107.4498 F12000 ; Move
G1 X79.8591 Y115.6059 E0.66589 F3000 ; Fill
G0 X80.5903 Y115.6059 F12000 ; Move
G1 X88.7464 Y107.4498 E0.66589 F3000 ; Fill
G0 X89.4776 Y107.4498 F12000 ; Move
G1 X81.3216 Y115.6059 E0.66589 F3000 ; Fill
G0 X82.0528 Y115.6059 F12000 ; Move
G1 X90.2089 Y107.4498 E0.66589 F3000 ; Fill
G0 X90.9402 Y107.4498 F12000 ; Move
G1 X82.7841 Y115.6059 E0.66589 F3000 ; Fill
G0 X83.5154 Y115.6059 F12000 ; Move
G1 X91.6714 Y107.4498 E0.66589 F3000 ; Fill
G0 X92.4027 Y107.4498 F12000 ; Move
G1 X84.2466 Y115.6059 E0.66589 F3000 ; Fill
G0 X84.9779 Y115.6059 F12000 ; Move
G1 X93.1339 Y107.4498 E0.66589 F3000 ; Fill
G0 X93.8652 Y107.4498 F12000 ; Move
G1 X85.7091 Y115.6059 E0.66589 F3000 ; Fill
G0 X86.4404 Y115.6059 F12000 ; Move
G1 X94.5965 Y107.4498 E0.66589 F3000 ; Fill
G0 X95.3277 Y107.4498 F12000 ; Move
G1 X87.1717 Y115.6059 E0.66589 F3000 ; Fill
G0 X87.9029 Y115.6059 F12000 ; Move
G1 X96.059 Y107.4498 E0.66589 F3000 ; Fill
G0 X96.7903 Y107.4498 F12000 ; Move
G1 X88.6342 Y115.6059 E0.66589 F3000 ; Fill
G0 X89.3654 Y115.6059 F12000 ; Move
G1 X97.5215 Y107.4498 E0.66589 F3000 ; Fill
G0 X98.2528 Y107.4498 F12000 ; Move
G1 X90.0967 Y115.6059 E0.66589 F3000 ; Fill
G0 X90.828 Y115.6059 F12000 ; Move
G1 X98.984 Y107.4498 E0.66589 F3000 ; Fill
G0 X99.7153 Y107.4498 F12000 ; Move
G1 X91.5592 Y115.6059 E0.66589 F3000 ; Fill
G0 X92.2905 Y115.6059 F12000 ; Move
G1 X100.4466 Y107.4498 E0.66589 F3000 ; Fill
G0 X101.1778 Y107.4498 F12000 ; Move
G1 X93.0218 Y115.6059 E0.66589 F3000 ; Fill
G0 X93.753 Y115.6059 F12000 ; Move
G1 X101.9091 Y107.4498 E0.66589 F3000 ; Fill
G0 X102.6403 Y107.4498 F12000 ; Move
G1 X94.4843 Y115.6059 E0.66589 F3000 ; Fill
G0 X95.2155 Y115.6059 F12000 ; Move
G1 X103.3716 Y107.4498 E0.66589 F3000 ; Fill
G0 X104.1029 Y107.4498 F12000 ; Move
G1 X95.9468 Y115.6059 E0.66589 F3000 ; Fill
G0 X96.6781 Y115.6059 F12000 ; Move
G1 X104.8341 Y107.4498 E0.66589 F3000 ; Fill
G0 X105.5654 Y107.4498 F12000 ; Move
G1 X97.4093 Y115.6059 E0.66589 F3000 ; Fill
G0 X98.1406 Y115.6059 F12000 ; Move
G1 X106.2966 Y107.4498 E0.66589 F3000 ; Fill
G0 X107.0279 Y107.4498 F12000 ; Move
G1 X98.8718 Y115.6059 E0.66589 F3000 ; Fill
G0 X99.6031 Y115.6059 F12000 ; Move
G1 X107.7592 Y107.4498 E0.66589 F3000 ; Fill
G0 X108.4904 Y107.4498 F12000 ; Move
G1 X100.3344 Y115.6059 E0.66589 F3000 ; Fill
G0 X101.0656 Y115.6059 F12000 ; Move
G1 X109.2217 Y107.4498 E0.66589 F3000 ; Fill
G0 X109.9529 Y107.4498 F12000 ; Move
G1 X101.7969 Y115.6059 E0.66589 F3000 ; Fill
G0 X102.5281 Y115.6059 F12000 ; Move
G1 X110.6842 Y107.4498 E0.66589 F3000 ; Fill
G0 X111.4155 Y107.4498 F12000 ; Move
G1 X103.2594 Y115.6059 E0.66589 F3000 ; Fill
G0 X103.9907 Y115.6059 F12000 ; Move
G1 X112.1467 Y107.4498 E0.66589 F3000 ; Fill
G0 X112.878 Y107.4498 F12000 ; Move
G1 X104.7219 Y115.6059 E0.66589 F3000 ; Fill
G0 X105.4532 Y115.6059 F12000 ; Move
G1 X113.6093 Y107.4498 E0.66589 F3000 ; Fill
G0 X114.3405 Y107.4498 F12000 ; Move
G1 X106.1845 Y115.6059 E0.66589 F3000 ; Fill
G0 X106.9157 Y115.6059 F12000 ; Move
G1 X115.0718 Y107.4498 E0.66589 F3000 ; Fill
G0 X115.803 Y107.4498 F12000 ; Move
G1 X107.647 Y115.6059 E0.66589 F3000 ; Fill
G0 X108.3782 Y115.6059 F12000 ; Move
G1 X116.5343 Y107.4498 E0.66589 F3000 ; Fill
G0 X117.2656 Y107.4498 F12000 ; Move
G1 X109.1095 Y115.6059 E0.66589 F3000 ; Fill
G0 X109.8408 Y115.6059 F12000 ; Move
G1 X117.9968 Y107.4498 E0.66589 F3000 ; Fill
G0 X118.7281 Y107.4498 F12000 ; Move
G1 X110.572 Y115.6059 E0.66589 F3000 ; Fill
G0 X111.3033 Y115.6059 F12000 ; Move
G1 X119.4593 Y107.4498 E0.66589 F3000 ; Fill
G0 X120.1906 Y107.4498 F12000 ; Move
G1 X112.0345 Y115.6059 E0.66589 F3000 ; Fill
G0 X112.7658 Y115.6059 F12000 ; Move
G1 X120.9219 Y107.4498 E0.66589 F3000 ; Fill
G0 X121.6531 Y107.4498 F12000 ; Move
G1 X113.4971 Y115.6059 E0.66589 F3000 ; Fill
G0 X114.2283 Y115.6059 F12000 ; Move
G1 X122.3844 Y107.4498 E0.66589 F3000 ; Fill
G0 X123.1156 Y107.4498 F12000 ; Move
G1 X114.9596 Y115.6059 E0.66589 F3000 ; Fill
G0 X115.6908 Y115.6059 F12000 ; Move
G1 X123.8469 Y107.4498 E0.66589 F3000 ; Fill
G0 X124.5782 Y107.4498 F12000 ; Move
G1 X116.4221 Y115.6059 E0.66589 F3000 ; Fill
G0 X117.1534 Y115.6059 F12000 ; Move
G1 X125.3094 Y107.4498 E0.66589 F3000 ; Fill
G0 X126.0407 Y107.4498 F12000 ; Move
G1 X117.8846 Y115.6059 E0.66589 F3000 ; Fill
G0 X118.6159 Y115.6059 F12000 ; Move
G1 X126.772 Y107.4498 E0.66589 F3000 ; Fill
G0 X127.5032 Y107.4498 F12000 ; Move
G1 X119.3472 Y115.6059 E0.66589 F3000 ; Fill
G0 X119.9662 Y115.6059 F12000 ; Move
G1 X127.7657 Y107.8064 E0.63677 F3000 ; Fill
G0 X127.7657 Y108.5377 F12000 ; Move
G1 X120.6975 Y115.6059 E0.57707 F3000 ; Fill
G0 X121.4287 Y115.6059 F12000 ; Move
G1 X127.7657 Y109.269 E0.51737 F3000 ; Fill
G0 X127.7657 Y110.0002 F12000 ; Move
G1 X122.16 Y115.6059 E0.45767 F3000 ; Fill
G0 X122.8913 Y115.6059 F12000 ; Move
G1 X127.7657 Y110.7315 E0.39796 F3000 ; Fill
G0 X127.7657 Y111.4627 F12000 ; Move
G1 X123.6225 Y115.6059 E0.33826 F3000 ; Fill
G0 X124.3538 Y115.6059 F12000 ; Move
G1 X127.7657 Y112.194 E0.27856 F3000 ; Fill
G0 X127.7657 Y112.9253 F12000 ; Move
G1 X125.085 Y115.6059 E0.21886 F3000 ; Fill
G0 X125.8163 Y115.6059 F12000 ; Move
G1 X127.7657 Y113.6565 E0.15915 F3000 ; Fill
G0 X127.7657 Y114.3878 F12000 ; Move
G1 X126.5476 Y115.6059 E0.09945 F3000 ; Fill
G0 X127.2788 Y115.6059 F12000 ; Move
G1 X127.7657 Y115.119 E0.03975 F3000 ; Fill
G0 Z0.25 F12000 ; Move to layer height
G1 E-0.5 F3600 ; Retract
G0 X34.2689 Y64.558 F12000 ; Move to pattern start

G1 E0.5 F3600 ; Un-retract
SET_PRESSURE_ADVANCE ADVANCE=0 ; Set pressure advance
M117 PA 0
G1 X53.9309 Y84.22 E1.05489 F3000 ; Print pattern perimeter
G1 X34.2689 Y103.882 E1.05489 F3000 ; Print pattern perimeter
G1 E-0.5 F3600 ; Retract
G0 X34.8587 Y64.558 F12000 ; Move to start next pattern perimeter
G1 E0.5 F3600 ; Un-retract
G1 X54.5207 Y84.22 E1.05489 F3000 ; Print pattern perimeter
G1 X34.8587 Y103.882 E1.05489 F3000 ; Print pattern perimeter
G1 E-0.5 F3600 ; Retract
G0 X35.4486 Y64.558 F12000 ; Move to start next pattern perimeter
G1 E0.5 F3600 ; Un-retract
G1 X55.1106 Y84.22 E1.05489 F3000 ; Print pattern perimeter
G1 X35.4486 Y103.882 E1.05489 F3000 ; Print pattern perimeter
G1 E-0.5 F3600 ; Retract
G0 X38.9086 Y64.558 F12000 ; Move to next pattern
G1 E0.5 F3600 ; Un-retract
SET_PRESSURE_ADVANCE ADVANCE=0.005 ; Set pressure advance
M117 PA 0.005
G1 X58.5706 Y84.22 E1.05489 F3000 ; Print pattern perimeter
G1 X38.9086 Y103.882 E1.05489 F3000 ; Print pattern perimeter
G1 E-0.5 F3600 ; Retract
G0 X39.4984 Y64.558 F12000 ; Move to start next pattern perimeter
G1 E0.5 F3600 ; Un-retract
G1 X59.1604 Y84.22 E1.05489 F3000 ; Print pattern perimeter
G1 X39.4984 Y103.882 E1.05489 F3000 ; Print pattern perimeter
G1 E-0.5 F3600 ; Retract
G0 X40.0883 Y64.558 F12000 ; Move to start next pattern perimeter
G1 E0.5 F3600 ; Un-retract
G1 X59.7502 Y84.22 E1.05489 F3000 ; Print pattern perimeter
G1 X40.0883 Y103.882 E1.05489 F3000 ; Print pattern perimeter
G1 E-0.5 F3600 ; Retract
G0 X43.5483 Y64.558 F12000 ; Move to next pattern
G1 E0.5 F3600 ; Un-retract
SET_PRESSURE_ADVANCE ADVANCE=0.01 ; Set pressure advance
M117 PA 0.01
G1 X63.2102 Y84.22 E1.05489 F3000 ; Print pattern perimeter
G1 X43.5483 Y103.882 E1.05489 F3000 ; Print pattern perimeter
G1 E-0.5 F3600 ; Retract
G0 X44.1381 Y64.558 F12000 ; Move to start next pattern perimeter
G1 E0.5 F3600 ; Un-retract
G1 X63.8001 Y84.22 E1.05489 F3000 ; Print pattern perimeter
G1 X44.1381 Y103.882 E1.05489 F3000 ; Print pattern perimeter
G1 E-0.5 F3600 ; Retract
G0 X44.7279 Y64.558 F12000 ; Move to start next pattern perimeter
G1 E0.5 F3600 ; Un-retract
G1 X64.3899 Y84.22 E1.05489 F3000 ; Print pattern perimeter
G1 X44.7279 Y103.882 E1.05489 F3000 ; Print pattern perimeter
G1 E-0.5 F3600 ; Retract
G0 X48.1879 Y64.558 F12000 ; Move to next pattern
G1 E0.5 F3600 ; Un-retract
SET_PRESSURE_ADVANCE ADVANCE=0.015 ; Set pressure advance
M117 PA 0.015
G1 X67.8499 Y84.22 E1.05489 F3000 ; Print pattern perimeter
G1 X48.1879 Y103.882 E1.05489 F3000 ; Print pattern perimeter
G1 E-0.5 F3600 ; Retract
G0 X48.7778 Y64.558 F12000 ; Move to start next pattern perimeter
G1 E0.5 F3600 ; Un-retract
G1 X68.4398 Y84.22 E1.05489 F3000 ; Print pattern perimeter
G1 X48.7778 Y103.882 E1.05489 F3000 ; Print pattern perimeter
G1 E-0.5 F3600 ; Retract
G0 X49.3676 Y64.558 F12000 ; Move to start next pattern perimeter
G1 E0.5 F3600 ; Un-retract
G1 X69.0296 Y84.22 E1.05489 F3000 ; Print pattern perimeter
G1 X49.3676 Y103.882 E1.05489 F3000 ; Print pattern perimeter
G1 E-0.5 F3600 ; Retract
G0 X52.8276 Y64.558 F12000 ; Move to next pattern
G1 E0.5 F3600 ; Un-retract
SET_PRESSURE_ADVANCE ADVANCE=0.02 ; Set pressure advance
M117 PA 0.02
G1 X72.4896 Y84.22 E1.05489 F3000 ; Print pattern perimeter
G1 X52.8276 Y103.882 E1.05489 F3000 ; Print pattern perimeter
G1 E-0.5 F3600 ; Retract
G0 X53.4175 Y64.558 F12000 ; Move to start next pattern perimeter
G1 E0.5 F3600 ; Un-retract
G1 X73.0794 Y84.22 E1.05489 F3000 ; Print pattern perimeter
G1 X53.4175 Y103.882 E1.05489 F3000 ; Print pattern perimeter
G1 E-0.5 F3600 ; Retract
G0 X54.0073 Y64.558 F12000 ; Move to start next pattern perimeter
G1 E0.5 F3600 ; Un-retract
G1 X73.6693 Y84.22 E1.05489 F3000 ; Print pattern perimeter
G1 X54.0073 Y103.882 E1.05489 F3000 ; Print pattern perimeter
G1 E-0.5 F3600 ; Retract
G0 X57.4673 Y64.558 F12000 ; Move to next pattern
G1 E0.5 F3600 ; Un-retract
SET_PRESSURE_ADVANCE ADVANCE=0.025 ; Set pressure advance
M117 PA 0.025
G1 X77.1293 Y84.22 E1.05489 F3000 ; Print pattern perimeter
G1 X57.4673 Y103.882 E1.05489 F3000 ; Print pattern perimeter
G1 E-0.5 F3600 ; Retract
G0 X58.0571 Y64.558 F12000 ; Move to start next pattern perimeter
G1 E0.5 F3600 ; Un-retract
G1 X77.7191 Y84.22 E1.05489 F3000 ; Print pattern perimeter
G1 X58.0571 Y103.882 E1.05489 F3000 ; Print pattern perimeter
G1 E-0.5 F3600 ; Retract
G0 X58.647 Y64.558 F12000 ; Move to start next pattern perimeter
G1 E0.5 F3600 ; Un-retract
G1 X78.309 Y84.22 E1.05489 F3000 ; Print pattern perimeter
G1 X58.647 Y103.882 E1.05489 F3000 ; Print pattern perimeter
G1 E-0.5 F3600 ; Retract
G0 X62.107 Y64.558 F12000 ; Move to next pattern
G1 E0.5 F3600 ; Un-retract
SET_PRESSURE_ADVANCE ADVANCE=0.03 ; Set pressure advance
M117 PA 0.03
G1 X81.769 Y84.22 E1.05489 F3000 ; Print pattern perimeter
G1 X62.107 Y103.882 E1.05489 F3000 ; Print pattern perimeter
G1 E-0.5 F3600 ; Retract
G0 X62.6968 Y64.558 F12000 ; Move to start next pattern perimeter
G1 E0.5 F3600 ; Un-retract
G1 X82.3588 Y84.22 E1.05489 F3000 ; Print pattern perimeter
G1 X62.6968 Y103.882 E1.05489 F3000 ; Print pattern perimeter
G1 E-0.5 F3600 ; Retract
G0 X63.2867 Y64.558 F12000 ; Move to start next pattern perimeter
G1 E0.5 F3600 ; Un-retract
G1 X82.9486 Y84.22 E1.05489 F3000 ; Print pattern perimeter
G1 X63.2867 Y103.882 E1.05489 F3000 ; Print pattern perimeter
G1 E-0.5 F3600 ; Retract
G0 X66.7467 Y64.558 F12000 ; Move to next pattern
G1 E0.5 F3600 ; Un-retract
SET_PRESSURE_ADVANCE ADVANCE=0.035 ; Set pressure advance
M117 PA 0.035
G1 X86.4086 Y84.22 E1.05489 F3000 ; Print pattern perimeter
G1 X66.7467 Y103.882 E1.05489 F3000 ; Print pattern perimeter
G1 E-0.5 F3600 ; Retract
G0 X67.3365 Y64.558 F12000 ; Move to start next pattern perimeter
G1 E0.5 F3600 ; Un-retract
G1 X86.9985 Y84.22 E1.05489 F3000 ; Print pattern perimeter
G1 X67.3365 Y103.882 E1.05489 F3000 ; Print pattern perimeter
G1 E-0.5 F3600 ; Retract
G0 X67.9263 Y64.558 F12000 ; Move to start next pattern perimeter
G1 E0.5 F3600 ; Un-retract
G1 X87.5883 Y84.22 E1.05489 F3000 ; Print pattern perimeter
G1 X67.9263 Y103.882 E1.05489 F3000 ; Print pattern perimeter
G1 E-0.5 F3600 ; Retract
G0 X71.3863 Y64.558 F12000 ; Move to next pattern
G1 E0.5 F3600 ; Un-retract
SET_PRESSURE_ADVANCE ADVANCE=0.04 ; Set pressure advance
M117 PA 0.04
G1 X91.0483 Y84.22 E1.05489 F3000 ; Print pattern perimeter
G1 X71.3863 Y103.882 E1.05489 F3000 ; Print pattern perimeter
G1 E-0.5 F3600 ; Retract
G0 X71.9762 Y64.558 F12000 ; Move to start next pattern perimeter
G1 E0.5 F3600 ; Un-retract
G1 X91.6381 Y84.22 E1.05489 F3000 ; Print pattern perimeter
G1 X71.9762 Y103.882 E1.05489 F3000 ; Print pattern perimeter
G1 E-0.5 F3600 ; Retract
G0 X72.566 Y64.558 F12000 ; Move to start next pattern perimeter
G1 E0.5 F3600 ; Un-retract
G1 X92.228 Y84.22 E1.05489 F3000 ; Print pattern perimeter
G1 X72.566 Y103.882 E1.05489 F3000 ; Print pattern perimeter
G1 E-0.5 F3600 ; Retract
G0 X76.026 Y64.558 F12000 ; Move to next pattern
G1 E0.5 F3600 ; Un-retract
SET_PRESSURE_ADVANCE ADVANCE=0.045 ; Set pressure advance
M117 PA 0.045
G1 X95.688 Y84.22 E1.05489 F3000 ; Print pattern perimeter
G1 X76.026 Y103.882 E1.05489 F3000 ; Print pattern perimeter
G1 E-0.5 F3600 ; Retract
G0 X76.6159 Y64.558 F12000 ; Move to start next pattern perimeter
G1 E0.5 F3600 ; Un-retract
G1 X96.2778 Y84.22 E1.05489 F3000 ; Print pattern perimeter
G1 X76.6159 Y103.882 E1.05489 F3000 ; Print pattern perimeter
G1 E-0.5 F3600 ; Retract
G0 X77.2057 Y64.558 F12000 ; Move to start next pattern perimeter
G1 E0.5 F3600 ; Un-retract
G1 X96.8677 Y84.22 E1.05489 F3000 ; Print pattern perimeter
G1 X77.2057 Y103.882 E1.05489 F3000 ; Print pattern perimeter
G1 E-0.5 F3600 ; Retract
G0 X80.6657 Y64.558 F12000 ; Move to next pattern
G1 E0.5 F3600 ; Un-retract
SET_PRESSURE_ADVANCE ADVANCE=0.05 ; Set pressure advance
M117 PA 0.05
G1 X100.3277 Y84.22 E1.05489 F3000 ; Print pattern perimeter
G1 X80.6657 Y103.882 E1.05489 F3000 ; Print pattern perimeter
G1 E-0.5 F3600 ; Retract
G0 X81.2555 Y64.558 F12000 ; Move to start next pattern perimeter
G1 E0.5 F3600 ; Un-retract
G1 X100.9175 Y84.22 E1.05489 F3000 ; Print pattern perimeter
G1 X81.2555 Y103.882 E1.05489 F3000 ; Print pattern perimeter
G1 E-0.5 F3600 ; Retract
G0 X81.8454 Y64.558 F12000 ; Move to start next pattern perimeter
G1 E0.5 F3600 ; Un-retract
G1 X101.5073 Y84.22 E1.05489 F3000 ; Print pattern perimeter
G1 X81.8454 Y103.882 E1.05489 F3000 ; Print pattern perimeter
G1 E-0.5 F3600 ; Retract
G0 X85.3054 Y64.558 F12000 ; Move to next pattern
G1 E0.5 F3600 ; Un-retract
SET_PRESSURE_ADVANCE ADVANCE=0.055 ; Set pressure advance
M117 PA 0.055
G1 X104.9673 Y84.22 E1.05489 F3000 ; Print pattern perimeter
G1 X85.3054 Y103.882 E1.05489 F3000 ; Print pattern perimeter
G1 E-0.5 F3600 ; Retract
G0 X85.8952 Y64.558 F12000 ; Move to start next pattern perimeter
G1 E0.5 F3600 ; Un-retract
G1 X105.5572 Y84.22 E1.05489 F3000 ; Print pattern perimeter
G1 X85.8952 Y103.882 E1.05489 F3000 ; Print pattern perimeter
G1 E-0.5 F3600 ; Retract
G0 X86.4851 Y64.558 F12000 ; Move to start next pattern perimeter
G1 E0.5 F3600 ; Un-retract
G1 X106.147 Y84.22 E1.05489 F3000 ; Print pattern perimeter
G1 X86.4851 Y103.882 E1.05489 F3000 ; Print pattern perimeter
G1 E-0.5 F3600 ; Retract
G0 X89.9451 Y64.558 F12000 ; Move to next pattern
G1 E0.5 F3600 ; Un-retract
SET_PRESSURE_ADVANCE ADVANCE=0.06 ; Set pressure advance
M117 PA 0.06
G1 X109.607 Y84.22 E1.05489 F3000 ; Print pattern perimeter
G1 X89.9451 Y103.882 E1.05489 F3000 ; Print pattern perimeter
G1 E-0.5 F3600 ; Retract
G0 X90.5349 Y64.558 F12000 ; Move to start next pattern perimeter
G1 E0.5 F3600 ; Un-retract
G1 X110.1969 Y84.22 E1.05489 F3000 ; Print pattern perimeter
G1 X90.5349 Y103.882 E1.05489 F3000 ; Print pattern perimeter
G1 E-0.5 F3600 ; Retract
G0 X91.1247 Y64.558 F12000 ; Move to start next pattern perimeter
G1 E0.5 F3600 ; Un-retract
G1 X110.7867 Y84.22 E1.05489 F3000 ; Print pattern perimeter
G1 X91.1247 Y103.882 E1.05489 F3000 ; Print pattern perimeter
G1 E-0.5 F3600 ; Retract
G0 X94.5847 Y64.558 F12000 ; Move to next pattern
G1 E0.5 F3600 ; Un-retract
SET_PRESSURE_ADVANCE ADVANCE=0.065 ; Set pressure advance
M117 PA 0.065
G1 X114.2467 Y84.22 E1.05489 F3000 ; Print pattern perimeter
G1 X94.5847 Y103.882 E1.05489 F3000 ; Print pattern perimeter
G1 E-0.5 F3600 ; Retract
G0 X95.1746 Y64.558 F12000 ; Move to start next pattern perimeter
G1 E0.5 F3600 ; Un-retract
G1 X114.8365 Y84.22 E1.05489 F3000 ; Print pattern perimeter
G1 X95.1746 Y103.882 E1.05489 F3000 ; Print pattern perimeter
G1 E-0.5 F3600 ; Retract
G0 X95.7644 Y64.558 F12000 ; Move to start next pattern perimeter
G1 E0.5 F3600 ; Un-retract
G1 X115.4264 Y84.22 E1.05489 F3000 ; Print pattern perimeter
G1 X95.7644 Y103.882 E1.05489 F3000 ; Print pattern perimeter
G1 E-0.5 F3600 ; Retract
G0 X99.2244 Y64.558 F12000 ; Move to next pattern
G1 E0.5 F3600 ; Un-retract
SET_PRESSURE_ADVANCE ADVANCE=0.07 ; Set pressure advance
M117 PA 0.07
G1 X118.8864 Y84.22 E1.05489 F3000 ; Print pattern perimeter
G1 X99.2244 Y103.882 E1.05489 F3000 ; Print pattern perimeter
G1 E-0.5 F3600 ; Retract
G0 X99.8143 Y64.558 F12000 ; Move to start next pattern perimeter
G1 E0.5 F3600 ; Un-retract
G1 X119.4762 Y84.22 E1.05489 F3000 ; Print pattern perimeter
G1 X99.8143 Y103.882 E1.05489 F3000 ; Print pattern perimeter
G1 E-0.5 F3600 ; Retract
G0 X100.4041 Y64.558 F12000 ; Move to start next pattern perimeter
G1 E0.5 F3600 ; Un-retract
G1 X120.0661 Y84.22 E1.05489 F3000 ; Print pattern perimeter
G1 X100.4041 Y103.882 E1.05489 F3000 ; Print pattern perimeter
G1 E-0.5 F3600 ; Retract
G0 X103.8641 Y64.558 F12000 ; Move to next pattern
G1 E0.5 F3600 ; Un-retract
SET_PRESSURE_ADVANCE ADVANCE=0.075 ; Set pressure advance
M117 PA 0.075
G1 X123.5261 Y84.22 E1.05489 F3000 ; Print pattern perimeter
G1 X103.8641 Y103.882 E1.05489 F3000 ; Print pattern perimeter
G1 E-0.5 F3600 ; Retract
G0 X104.4539 Y64.558 F12000 ; Move to start next pattern perimeter
G1 E0.5 F3600 ; Un-retract
G1 X124.1159 Y84.22 E1.05489 F3000 ; Print pattern perimeter
G1 X104.4539 Y103.882 E1.05489 F3000 ; Print pattern perimeter
G1 E-0.5 F3600 ; Retract
G0 X105.0438 Y64.558 F12000 ; Move to start next pattern perimeter
G1 E0.5 F3600 ; Un-retract
G1 X124.7057 Y84.22 E1.05489 F3000 ; Print pattern perimeter
G1 X105.0438 Y103.882 E1.05489 F3000 ; Print pattern perimeter
G1 E-0.5 F3600 ; Retract
G0 X108.5038 Y64.558 F12000 ; Move to next pattern
G1 E0.5 F3600 ; Un-retract
SET_PRESSURE_ADVANCE ADVANCE=0.08 ; Set pressure advance
M117 PA 0.08
G1 X128.1657 Y84.22 E1.05489 F3000 ; Print pattern perimeter
G1 X108.5038 Y103.882 E1.05489 F3000 ; Print pattern perimeter
G1 E-0.5 F3600 ; Retract
G0 X109.0936 Y64.558 F12000 ; Move to start next pattern perimeter
G1 E0.5 F3600 ; Un-retract
G1 X128.7556 Y84.22 E1.05489 F3000 ; Print pattern perimeter
G1 X109.0936 Y103.882 E1.05489 F3000 ; Print pattern perimeter
G1 E-0.5 F3600 ; Retract
G0 X109.6835 Y64.558 F12000 ; Move to start next pattern perimeter
G1 E0.5 F3600 ; Un-retract
G1 X129.3454 Y84.22 E1.05489 F3000 ; Print pattern perimeter
G1 X109.6835 Y103.882 E1.05489 F3000 ; Print pattern perimeter
G1 E-0.5 F3600 ; Retract
G0 X113.1435 Y64.558 F12000 ; Move to next pattern
G1 E0.5 F3600 ; Un-retract
SET_PRESSURE_ADVANCE ADVANCE=0.085 ; Set pressure advance
M117 PA 0.085
G1 X132.8054 Y84.22 E1.05489 F3000 ; Print pattern perimeter
G1 X113.1435 Y103.882 E1.05489 F3000 ; Print pattern perimeter
G1 E-0.5 F3600 ; Retract
G0 X113.7333 Y64.558 F12000 ; Move to start next pattern perimeter
G1 E0.5 F3600 ; Un-retract
G1 X133.3953 Y84.22 E1.05489 F3000 ; Print pattern perimeter
G1 X113.7333 Y103.882 E1.05489 F3000 ; Print pattern perimeter
G1 E-0.5 F3600 ; Retract
G0 X114.3231 Y64.558 F12000 ; Move to start next pattern perimeter
G1 E0.5 F3600 ; Un-retract
G1 X133.9851 Y84.22 E1.05489 F3000 ; Print pattern perimeter
G1 X114.3231 Y103.882 E1.05489 F3000 ; Print pattern perimeter
G1 E-0.5 F3600 ; Retract
G0 X117.7831 Y64.558 F12000 ; Move to next pattern
G1 E0.5 F3600 ; Un-retract
SET_PRESSURE_ADVANCE ADVANCE=0.09 ; Set pressure advance
M117 PA 0.09
G1 X137.4451 Y84.22 E1.05489 F3000 ; Print pattern perimeter
G1 X117.7831 Y103.882 E1.05489 F3000 ; Print pattern perimeter
G1 E-0.5 F3600 ; Retract
G0 X118.373 Y64.558 F12000 ; Move to start next pattern perimeter
G1 E0.5 F3600 ; Un-retract
G1 X138.0349 Y84.22 E1.05489 F3000 ; Print pattern perimeter
G1 X118.373 Y103.882 E1.05489 F3000 ; Print pattern perimeter
G1 E-0.5 F3600 ; Retract
G0 X118.9628 Y64.558 F12000 ; Move to start next pattern perimeter
G1 E0.5 F3600 ; Un-retract
G1 X138.6248 Y84.22 E1.05489 F3000 ; Print pattern perimeter
G1 X118.9628 Y103.882 E1.05489 F3000 ; Print pattern perimeter
G1 E-0.5 F3600 ; Retract
G0 X122.4228 Y64.558 F12000 ; Move to next pattern
G1 E0.5 F3600 ; Un-retract
SET_PRESSURE_ADVANCE ADVANCE=0.095 ; Set pressure advance
M117 PA 0.095
G1 X142.0848 Y84.22 E1.05489 F3000 ; Print pattern perimeter
G1 X122.4228 Y103.882 E1.05489 F3000 ; Print pattern perimeter
G1 E-0.5 F3600 ; Retract
G0 X123.0127 Y64.558 F12000 ; Move to start next pattern perimeter
G1 E0.5 F3600 ; Un-retract
G1 X142.6746 Y84.22 E1.05489 F3000 ; Print pattern perimeter
G1 X123.0127 Y103.882 E1.05489 F3000 ; Print pattern perimeter
G1 E-0.5 F3600 ; Retract
G0 X123.6025 Y64.558 F12000 ; Move to start next pattern perimeter
G1 E0.5 F3600 ; Un-retract
G1 X143.2645 Y84.22 E1.05489 F3000 ; Print pattern perimeter
G1 X123.6025 Y103.882 E1.05489 F3000 ; Print pattern perimeter
G1 E-0.5 F3600 ; Retract
G0 X127.0625 Y64.558 F12000 ; Move to next pattern
G1 E0.5 F3600 ; Un-retract
SET_PRESSURE_ADVANCE ADVANCE=0.1 ; Set pressure advance
M117 PA 0.1
G1 X146.7245 Y84.22 E1.05489 F3000 ; Print pattern perimeter
G1 X127.0625 Y103.882 E1.05489 F3000 ; Print pattern perimeter
G1 E-0.5 F3600 ; Retract
G0 X127.6523 Y64.558 F12000 ; Move to start next pattern perimeter
G1 E0.5 F3600 ; Un-retract
G1 X147.3143 Y84.22 E1.05489 F3000 ; Print pattern perimeter
G1 X127.6523 Y103.882 E1.05489 F3000 ; Print pattern perimeter
G1 E-0.5 F3600 ; Retract
G0 X128.2422 Y64.558 F12000 ; Move to start next pattern perimeter
G1 E0.5 F3600 ; Un-retract
G1 X147.9041 Y84.22 E1.05489 F3000 ; Print pattern perimeter
G1 X128.2422 Y103.882 E1.05489 F3000 ; Print pattern perimeter
G1 E-0.5 F3600 ; Retract
G0 X34.2689 Y64.558 F12000 ; Move back to start position
G1 E0.5 F3600 ; Un-retract
M106 S255 ; Set fan speed
G0 Z0.45 F12000 ; Move to layer height
G1 E-0.5 F3600 ; Retract
G0 X31.3075 Y106.8932 F12000 ; Move
G1 E0.5 F3600 ; Un-retract
G1 X33.3075 Y106.8932 E0.07587 F9000 ; Glyph: 0
G1 X35.3075 Y106.8932 E0.07587 F9000 ; Glyph: 0
G1 X35.3075 Y108.8932 E0.07587 F9000 ; Glyph: 0
G1 X33.3075 Y108.8932 E0.07587 F9000 ; Glyph: 0
G1 X31.3075 Y108.8932 E0.07587 F9000 ; Glyph: 0
G1 X31.3075 Y106.8932 E0.07587 F9000 ; Glyph: 0
G1 E-0.5 F3600 ; Retract
G0 X40.5869 Y106.8932 F12000 ; Move
G1 E0.5 F3600 ; Un-retract
G1 X42.5869 Y106.8932 E0.07587 F9000 ; Glyph: 0
G1 X44.5869 Y106.8932 E0.07587 F9000 ; Glyph: 0
G1 X44.5869 Y108.8932 E0.07587 F9000 ; Glyph: 0
G1 X42.5869 Y108.8932 E0.07587 F9000 ; Glyph: 0
G1 X40.5869 Y108.8932 E0.07587 F9000 ; Glyph: 0
G1 X40.5869 Y106.8932 E0.07587 F9000 ; Glyph: 0
G1 E-0.5 F3600 ; Retract
G0 X44.5869 Y109.8932 F12000 ; Move
G1 E0.5 F3600 ; Un-retract
G1 X43.8369 Y109.8932 E0.02845 F9000 ; Glyph: .
G1 E-0.5 F3600 ; Retract
G0 X40.5869 Y110.8932 F12000 ; Move
G1 E0.5 F3600 ; Un-retract
G1 X42.5869 Y110.8932 E0.07587 F9000 ; Glyph: 0
G1 X44.5869 Y110.8932 E0.07587 F9000 ; Glyph: 0
G1 X44.5869 Y112.8932 E0.07587 F9000 ; Glyph: 0
G1 X42.5869 Y112.8932 E0.07587 F9000 ; Glyph: 0
G1 X40.5869 Y112.8932 E0.07587 F9000 ; Glyph: 0
G1 X40.5869 Y110.8932 E0.07587 F9000 ; Glyph: 0
G1 E-0.5 F3600 ; Retract
G0 X40.5869 Y113.8932 F12000 ; Move
G1 E0.5 F3600 ; Un-retract
G1 X42.5869 Y113.8932 E0.07587 F9000 ; Glyph: 1
G1 X44.5869 Y113.8932 E0.07587 F9000 ; Glyph: 1
G1 E-0.5 F3600 ; Retract
G0 X49.8662 Y106.8932 F12000 ; Move
G1 E0.5 F3600 ; Un-retract
G1 X51.8662 Y106.8932 E0.07587 F9000 ; Glyph: 0
G1 X53.8662 Y106.8932 E0.07587 F9000 ; Glyph: 0
G1 X53.8662 Y108.8932 E0.07587 F9000 ; Glyph: 0
G1 X51.8662 Y108.8932 E0.07587 F9000 ; Glyph: 0
G1 X49.8662 Y108.8932 E0.07587 F9000 ; Glyph: 0
G1 X49.8662 Y106.8932 E0.07587 F9000 ; Glyph: 0
G1 E-0.5 F3600 ; Retract
G0 X53.8662 Y109.8932 F12000 ; Move
G1 E0.5 F3600 ; Un-retract
G1 X53.1162 Y109.8932 E0.02845 F9000 ; Glyph: .
G1 E-0.5 F3600 ; Retract
G0 X49.8662 Y110.8932 F12000 ; Move
G1 E0.5 F3600 ; Un-retract
G1 X51.8662 Y110.8932 E0.07587 F9000 ; Glyph: 0
G1 X53.8662 Y110.8932 E0.07587 F9000 ; Glyph: 0
G1 X53.8662 Y112.8932 E0.07587 F9000 ; Glyph: 0
G1 X51.8662 Y112.8932 E0.07587 F9000 ; Glyph: 0
G1 X49.8662 Y112.8932 E0.07587 F9000 ; Glyph: 0
G1 X49.8662 Y110.8932 E0.07587 F9000 ; Glyph: 0
G1 E-0.5 F3600 ; Retract
G0 X49.8662 Y113.8932 F12000 ; Move
G1 E0.5 F3600 ; Un-retract
G1 X49.8662 Y115.8932 E0.07587 F9000 ; Glyph: 2
G1 X51.8662 Y115.8932 E0.07587 F9000 ; Glyph: 2
G1 X51.8662 Y113.8932 E0.07587 F9000 ; Glyph: 2
G1 X53.8662 Y113.8932 E0.07587 F9000 ; Glyph: 2
G1 X53.8662 Y115.8932 E0.07587 F9000 ; Glyph: 2
G1 E-0.5 F3600 ; Retract
G0 X59.1456 Y106.8932 F12000 ; Move
G1 E0.5 F3600 ; Un-retract
G1 X61.1456 Y106.8932 E0.07587 F9000 ; Glyph: 0
G1 X63.1456 Y106.8932 E0.07587 F9000 ; Glyph: 0
G1 X63.1456 Y108.8932 E0.07587 F9000 ; Glyph: 0
G1 X61.1456 Y108.8932 E0.07587 F9000 ; Glyph: 0
G1 X59.1456 Y108.8932 E0.07587 F9000 ; Glyph: 0
G1 X59.1456 Y106.8932 E0.07587 F9000 ; Glyph: 0
G1 E-0.5 F3600 ; Retract
G0 X63.1456 Y109.8932 F12000 ; Move
G1 E0.5 F3600 ; Un-retract
G1 X62.3956 Y109.8932 E0.02845 F9000 ; Glyph: .
G1 E-0.5 F3600 ; Retract
G0 X59.1456 Y110.8932 F12000 ; Move
G1 E0.5 F3600 ; Un-retract
G1 X61.1456 Y110.8932 E0.07587 F9000 ; Glyph: 0
G1 X63.1456 Y110.8932 E0.07587 F9000 ; Glyph: 0
G1 X63.1456 Y112.8932 E0.07587 F9000 ; Glyph: 0
G1 X61.1456 Y112.8932 E0.07587 F9000 ; Glyph: 0
G1 X59.1456 Y112.8932 E0.07587 F9000 ; Glyph: 0
G1 X59.1456 Y110.8932 E0.07587 F9000 ; Glyph: 0
G1 E-0.5 F3600 ; Retract
G0 X59.1456 Y113.8932 F12000 ; Move
G1 E0.5 F3600 ; Un-retract
G1 X59.1456 Y115.8932 E0.07587 F9000 ; Glyph: 3
G1 X61.1456 Y115.8932 E0.07587 F9000 ; Glyph: 3
G1 X61.1456 Y113.8932 E0.07587 F9000 ; Glyph: 3
G0 X61.1456 Y115.8932 F12000 ; Move
G1 X63.1456 Y115.8932 E0.07587 F9000 ; Glyph: 3
G1 X63.1456 Y113.8932 E0.07587 F9000 ; Glyph: 3
G1 E-0.5 F3600 ; Retract
G0 X68.4249 Y106.8932 F12000 ; Move
G1 E0.5 F3600 ; Un-retract
G1 X70.4249 Y106.8932 E0.07587 F9000 ; Glyph: 0
G1 X72.4249 Y106.8932 E0.07587 F9000 ; Glyph: 0
G1 X72.4249 Y108.8932 E0.07587 F9000 ; Glyph: 0
G1 X70.4249 Y108.8932 E0.07587 F9000 ; Glyph: 0
G1 X68.4249 Y108.8932 E0.07587 F9000 ; Glyph: 0
G1 X68.4249 Y106.8932 E0.07587 F9000 ; Glyph: 0
G1 E-0.5 F3600 ; Retract
G0 X72.4249 Y109.8932 F12000 ; Move
G1 E0.5 F3600 ; Un-retract
G1 X71.6749 Y109.8932 E0.02845 F9000 ; Glyph: .
G1 E-0.5 F3600 ; Retract
G0 X68.4249 Y110.8932 F12000 ; Move
G1 E0.5 F3600 ; Un-retract
G1 X70.4249 Y110.8932 E0.07587 F9000 ; Glyph: 0
G1 X72.4249 Y110.8932 E0.07587 F9000 ; Glyph: 0
G1 X72.4249 Y112.8932 E0.07587 F9000 ; Glyph: 0
G1 X70.4249 Y112.8932 E0.07587 F9000 ; Glyph: 0
G1 X68.4249 Y112.8932 E0.07587 F9000 ; Glyph: 0
G1 X68.4249 Y110.8932 E0.07587 F9000 ; Glyph: 0
G1 E-0.5 F3600 ; Retract
G0 X68.4249 Y115.8932 F12000 ; Move
G1 E0.5 F3600 ; Un-retract
G1 X70.4249 Y115.8932 E0.07587 F9000 ; Glyph: 4
G1 X72.4249 Y115.8932 E0.07587 F9000 ; Glyph: 4
G0 X70.4249 Y115.8932 F12000 ; Move
G1 X70.4249 Y113.8932 E0.07587 F9000 ; Glyph: 4
G1 X68.4249 Y113.8932 E0.07587 F9000 ; Glyph: 4
G1 E-0.5 F3600 ; Retract
G0 X77.7043 Y106.8932 F12000 ; Move
G1 E0.5 F3600 ; Un-retract
G1 X79.7043 Y106.8932 E0.07587 F9000 ; Glyph: 0
G1 X81.7043 Y106.8932 E0.07587 F9000 ; Glyph: 0
G1 X81.7043 Y108.8932 E0.07587 F9000 ; Glyph: 0
G1 X79.7043 Y108.8932 E0.07587 F9000 ; Glyph: 0
G1 X77.7043 Y108.8932 E0.07587 F9000 ; Glyph: 0
G1 X77.7043 Y106.8932 E0.07587 F9000 ; Glyph: 0
G1 E-0.5 F3600 ; Retract
G0 X81.7043 Y109.8932 F12000 ; Move
G1 E0.5 F3600 ; Un-retract
G1 X80.9543 Y109.8932 E0.02845 F9000 ; Glyph: .
G1 E-0.5 F3600 ; Retract
G0 X77.7043 Y110.8932 F12000 ; Move
G1 E0.5 F3600 ; Un-retract
G1 X79.7043 Y110.8932 E0.07587 F9000 ; Glyph: 0
G1 X81.7043 Y110.8932 E0.07587 F9000 ; Glyph: 0
G1 X81.7043 Y112.8932 E0.07587 F9000 ; Glyph: 0
G1 X79.7043 Y112.8932 E0.07587 F9000 ; Glyph: 0
G1 X77.7043 Y112.8932 E0.07587 F9000 ; Glyph: 0
G1 X77.7043 Y110.8932 E0.07587 F9000 ; Glyph: 0
G1 E-0.5 F3600 ; Retract
G0 X77.7043 Y115.8932 F12000 ; Move
G1 E0.5 F3600 ; Un-retract
G1 X77.7043 Y113.8932 E0.07587 F9000 ; Glyph: 5
G1 X79.7043 Y113.8932 E0.07587 F9000 ; Glyph: 5
G1 X79.7043 Y115.8932 E0.07587 F9000 ; Glyph: 5
G1 X81.7043 Y115.8932 E0.07587 F9000 ; Glyph: 5
G1 X81.7043 Y113.8932 E0.07587 F9000 ; Glyph: 5
G1 E-0.5 F3600 ; Retract
G0 X86.9837 Y106.8932 F12000 ; Move
G1 E0.5 F3600 ; Un-retract
G1 X88.9837 Y106.8932 E0.07587 F9000 ; Glyph: 0
G1 X90.9837 Y106.8932 E0.07587 F9000 ; Glyph: 0
G1 X90.9837 Y108.8932 E0.07587 F9000 ; Glyph: 0
G1 X88.9837 Y108.8932 E0.07587 F9000 ; Glyph: 0
G1 X86.9837 Y108.8932 E0.07587 F9000 ; Glyph: 0
G1 X86.9837 Y106.8932 E0.07587 F9000 ; Glyph: 0
G1 E-0.5 F3600 ; Retract
G0 X90.9837 Y109.8932 F12000 ; Move
G1 E0.5 F3600 ; Un-retract
G1 X90.2337 Y109.8932 E0.02845 F9000 ; Glyph: .
G1 E-0.5 F3600 ; Retract
G0 X86.9837 Y110.8932 F12000 ; Move
G1 E0.5 F3600 ; Un-retract
G1 X88.9837 Y110.8932 E0.07587 F9000 ; Glyph: 0
G1 X90.9837 Y110.8932 E0.07587 F9000 ; Glyph: 0
G1 X90.9837 Y112.8932 E0.07587 F9000 ; Glyph: 0
G1 X88.9837 Y112.8932 E0.07587 F9000 ; Glyph: 0
G1 X86.9837 Y112.8932 E0.07587 F9000 ; Glyph: 0
G1 X86.9837 Y110.8932 E0.07587 F9000 ; Glyph: 0
G1 E-0.5 F3600 ; Retract
G0 X86.9837 Y115.8932 F12000 ; Move
G1 E0.5 F3600 ; Un-retract
G1 X86.9837 Y113.8932 E0.07587 F9000 ; Glyph: 6
G1 X88.9837 Y113.8932 E0.07587 F9000 ; Glyph: 6
G1 X90.9837 Y113.8932 E0.07587 F9000 ; Glyph: 6
G1 X90.9837 Y115.8932 E0.07587 F9000 ; Glyph: 6
G1 X88.9837 Y115.8932 E0.07587 F9000 ; Glyph: 6
G1 X88.9837 Y113.8932 E0.07587 F9000 ; Glyph: 6
G1 E-0.5 F3600 ; Retract
G0 X96.263 Y106.8932 F12000 ; Move
G1 E0.5 F3600 ; Un-retract
G1 X98.263 Y106.8932 E0.07587 F9000 ; Glyph: 0
G1 X100.263 Y106.8932 E0.07587 F9000 ; Glyph: 0
G1 X100.263 Y108.8932 E0.07587 F9000 ; Glyph: 0
G1 X98.263 Y108.8932 E0.07587 F9000 ; Glyph: 0
G1 X96.263 Y108.8932 E0.07587 F9000 ; Glyph: 0
G1 X96.263 Y106.8932 E0.07587 F9000 ; Glyph: 0
G1 E-0.5 F3600 ; Retract
G0 X100.263 Y109.8932 F12000 ; Move
G1 E0.5 F3600 ; Un-retract
G1 X99.513 Y109.8932 E0.02845 F9000 ; Glyph: .
G1 E-0.5 F3600 ; Retract
G0 X96.263 Y110.8932 F12000 ; Move
G1 E0.5 F3600 ; Un-retract
G1 X98.263 Y110.8932 E0.07587 F9000 ; Glyph: 0
G1 X100.263 Y110.8932 E0.07587 F9000 ; Glyph: 0
G1 X100.263 Y112.8932 E0.07587 F9000 ; Glyph: 0
G1 X98.263 Y112.8932 E0.07587 F9000 ; Glyph: 0
G1 X96.263 Y112.8932 E0.07587 F9000 ; Glyph: 0
G1 X96.263 Y110.8932 E0.07587 F9000 ; Glyph: 0
G1 E-0.5 F3600 ; Retract
G0 X96.263 Y113.8932 F12000 ; Move
G1 E0.5 F3600 ; Un-retract
G1 X96.263 Y115.8932 E0.07587 F9000 ; Glyph: 7
G1 X98.263 Y115.8932 E0.07587 F9000 ; Glyph: 7
G1 X100.263 Y115.8932 E0.07587 F9000 ; Glyph: 7
G1 E-0.5 F3600 ; Retract
G0 X105.5424 Y106.8932 F12000 ; Move
G1 E0.5 F3600 ; Un-retract
G1 X107.5424 Y106.8932 E0.07587 F9000 ; Glyph: 0
G1 X109.5424 Y106.8932 E0.07587 F9000 ; Glyph: 0
G1 X109.5424 Y108.8932 E0.07587 F9000 ; Glyph: 0
G1 X107.5424 Y108.8932 E0.07587 F9000 ; Glyph: 0
G1 X105.5424 Y108.8932 E0.07587 F9000 ; Glyph: 0
G1 X105.5424 Y106.8932 E0.07587 F9000 ; Glyph: 0
G1 E-0.5 F3600 ; Retract
G0 X109.5424 Y109.8932 F12000 ; Move
G1 E0.5 F3600 ; Un-retract
G1 X108.7924 Y109.8932 E0.02845 F9000 ; Glyph: .
G1 E-0.5 F3600 ; Retract
G0 X105.5424 Y110.8932 F12000 ; Move
G1 E0.5 F3600 ; Un-retract
G1 X107.5424 Y110.8932 E0.07587 F9000 ; Glyph: 0
G1 X109.5424 Y110.8932 E0.07587 F9000 ; Glyph: 0
G1 X109.5424 Y112.8932 E0.07587 F9000 ; Glyph: 0
G1 X107.5424 Y112.8932 E0.07587 F9000 ; Glyph: 0
G1 X105.5424 Y112.8932 E0.07587 F9000 ; Glyph: 0
G1 X105.5424 Y110.8932 E0.07587 F9000 ; Glyph: 0
G1 E-0.5 F3600 ; Retract
G0 X105.5424 Y113.8932 F12000 ; Move
G1 E0.5 F3600 ; Un-retract
G1 X107.5424 Y113.8932 E0.07587 F9000 ; Glyph: 8
G1 X109.5424 Y113.8932 E0.07587 F9000 ; Glyph: 8
G1 X109.5424 Y115.8932 E0.07587 F9000 ; Glyph: 8
G1 X107.5424 Y115.8932 E0.07587 F9000 ; Glyph: 8
G1 X105.5424 Y115.8932 E0.07587 F9000 ; Glyph: 8
G1 X105.5424 Y113.8932 E0.07587 F9000 ; Glyph: 8
G0 X107.5424 Y113.8932 F12000 ; Move
G1 X107.5424 Y115.8932 E0.07587 F9000 ; Glyph: 8
G1 E-0.5 F3600 ; Retract
G0 X114.8217 Y106.8932 F12000 ; Move
G1 E0.5 F3600 ; Un-retract
G1 X116.8217 Y106.8932 E0.07587 F9000 ; Glyph: 0
G1 X118.8217 Y106.8932 E0.07587 F9000 ; Glyph: 0
G1 X118.8217 Y108.8932 E0.07587 F9000 ; Glyph: 0
G1 X116.8217 Y108.8932 E0.07587 F9000 ; Glyph: 0
G1 X114.8217 Y108.8932 E0.07587 F9000 ; Glyph: 0
G1 X114.8217 Y106.8932 E0.07587 F9000 ; Glyph: 0
G1 E-0.5 F3600 ; Retract
G0 X118.8217 Y109.8932 F12000 ; Move
G1 E0.5 F3600 ; Un-retract
G1 X118.0717 Y109.8932 E0.02845 F9000 ; Glyph: .
G1 E-0.5 F3600 ; Retract
G0 X114.8217 Y110.8932 F12000 ; Move
G1 E0.5 F3600 ; Un-retract
G1 X116.8217 Y110.8932 E0.07587 F9000 ; Glyph: 0
G1 X118.8217 Y110.8932 E0.07587 F9000 ; Glyph: 0
G1 X118.8217 Y112.8932 E0.07587 F9000 ; Glyph: 0
G1 X116.8217 Y112.8932 E0.07587 F9000 ; Glyph: 0
G1 X114.8217 Y112.8932 E0.07587 F9000 ; Glyph: 0
G1 X114.8217 Y110.8932 E0.07587 F9000 ; Glyph: 0
G1 E-0.5 F3600 ; Retract
G0 X118.8217 Y113.8932 F12000 ; Move
G1 E0.5 F3600 ; Un-retract
G1 X118.8217 Y115.8932 E0.07587 F9000 ; Glyph: 9
G1 X116.8217 Y115.8932 E0.07587 F9000 ; Glyph: 9
G1 X114.8217 Y115.8932 E0.07587 F9000 ; Glyph: 9
G1 X114.8217 Y113.8932 E0.07587 F9000 ; Glyph: 9
G1 X116.8217 Y113.8932 E0.07587 F9000 ; Glyph: 9
G1 X116.8217 Y115.8932 E0.07587 F9000 ; Glyph: 9
G1 E-0.5 F3600 ; Retract
G0 X124.1011 Y106.8932 F12000 ; Move
G1 E0.5 F3600 ; Un-retract
G1 X126.1011 Y106.8932 E0.07587 F9000 ; Glyph: 0
G1 X128.1011 Y106.8932 E0.07587 F9000 ; Glyph: 0
G1 X128.1011 Y108.8932 E0.07587 F9000 ; Glyph: 0
G1 X126.1011 Y108.8932 E0.07587 F9000 ; Glyph: 0
G1 X124.1011 Y108.8932 E0.07587 F9000 ; Glyph: 0
G1 X124.1011 Y106.8932 E0.07587 F9000 ; Glyph: 0
G1 E-0.5 F3600 ; Retract
G0 X128.1011 Y109.8932 F12000 ; Move
G1 E0.5 F3600 ; Un-retract
G1 X127.3511 Y109.8932 E0.02845 F9000 ; Glyph: .
G1 E-0.5 F3600 ; Retract
G0 X124.1011 Y110.8932 F12000 ; Move
G1 E0.5 F3600 ; Un-retract
G1 X126.1011 Y110.8932 E0.07587 F9000 ; Glyph: 1
G1 X128.1011 Y110.8932 E0.07587 F9000 ; Glyph: 1
G1 E-0.5 F3600 ; Retract
G0 X32.7177 Y63.0068 F12000 ; Move to pattern start

G1 E0.5 F3600 ; Un-retract
SET_PRESSURE_ADVANCE ADVANCE=0 ; Set pressure advance
M117 PA 0
G1 X53.9309 Y84.22 E1.13812 F9000 ; Print pattern perimeter
G1 X32.7177 Y105.4332 E1.13812 F9000 ; Print pattern perimeter
G1 E-0.5 F3600 ; Retract
G0 X33.3075 Y63.0068 F12000 ; Move to start next pattern perimeter
G1 E0.5 F3600 ; Un-retract
G1 X54.5207 Y84.22 E1.13812 F9000 ; Print pattern perimeter
G1 X33.3075 Y105.4332 E1.13812 F9000 ; Print pattern perimeter
G1 E-0.5 F3600 ; Retract
G0 X33.8974 Y63.0068 F12000 ; Move to start next pattern perimeter
G1 E0.5 F3600 ; Un-retract
G1 X55.1106 Y84.22 E1.13812 F9000 ; Print pattern perimeter
G1 X33.8974 Y105.4332 E1.13812 F9000 ; Print pattern perimeter
G1 E-0.5 F3600 ; Retract
G0 X37.3574 Y63.0068 F12000 ; Move to next pattern
G1 E0.5 F3600 ; Un-retract
SET_PRESSURE_ADVANCE ADVANCE=0.005 ; Set pressure advance
M117 PA 0.005
G1 X58.5706 Y84.22 E1.13812 F9000 ; Print pattern perimeter
G1 X37.3574 Y105.4332 E1.13812 F9000 ; Print pattern perimeter
G1 E-0.5 F3600 ; Retract
G0 X37.9472 Y63.0068 F12000 ; Move to start next pattern perimeter
G1 E0.5 F3600 ; Un-retract
G1 X59.1604 Y84.22 E1.13812 F9000 ; Print pattern perimeter
G1 X37.9472 Y105.4332 E1.13812 F9000 ; Print pattern perimeter
G1 E-0.5 F3600 ; Retract
G0 X38.537 Y63.0068 F12000 ; Move to start next pattern perimeter
G1 E0.5 F3600 ; Un-retract
G1 X59.7502 Y84.22 E1.13812 F9000 ; Print pattern perimeter
G1 X38.537 Y105.4332 E1.13812 F9000 ; Print pattern perimeter
G1 E-0.5 F3600 ; Retract
G0 X41.997 Y63.0068 F12000 ; Move to next pattern
G1 E0.5 F3600 ; Un-retract
SET_PRESSURE_ADVANCE ADVANCE=0.01 ; Set pressure advance
M117 PA 0.01
G1 X63.2102 Y84.22 E1.13812 F9000 ; Print pattern perimeter
G1 X41.997 Y105.4332 E1.13812 F9000 ; Print pattern perimeter
G1 E-0.5 F3600 ; Retract
G0 X42.5869 Y63.0068 F12000 ; Move to start next pattern perimeter
G1 E0.5 F3600 ; Un-retract
G1 X63.8001 Y84.22 E1.13812 F9000 ; Print pattern perimeter
G1 X42.5869 Y105.4332 E1.13812 F9000 ; Print pattern perimeter
G1 E-0.5 F3600 ; Retract
G0 X43.1767 Y63.0068 F12000 ; Move to start next pattern perimeter
G1 E0.5 F3600 ; Un-retract
G1 X64.3899 Y84.22 E1.13812 F9000 ; Print pattern perimeter
G1 X43.1767 Y105.4332 E1.13812 F9000 ; Print pattern perimeter
G1 E-0.5 F3600 ; Retract
G0 X46.6367 Y63.0068 F12000 ; Move to next pattern
G1 E0.5 F3600 ; Un-retract
SET_PRESSURE_ADVANCE ADVANCE=0.015 ; Set pressure advance
M117 PA 0.015
G1 X67.8499 Y84.22 E1.13812 F9000 ; Print pattern perimeter
G1 X46.6367 Y105.4332 E1.13812 F9000 ; Print pattern perimeter
G1 E-0.5 F3600 ; Retract
G0 X47.2265 Y63.0068 F12000 ; Move to start next pattern perimeter
G1 E0.5 F3600 ; Un-retract
G1 X68.4398 Y84.22 E1.13812 F9000 ; Print pattern perimeter
G1 X47.2265 Y105.4332 E1.13812 F9000 ; Print pattern perimeter
G1 E-0.5 F3600 ; Retract
G0 X47.8164 Y63.0068 F12000 ; Move to start next pattern perimeter
G1 E0.5 F3600 ; Un-retract
G1 X69.0296 Y84.22 E1.13812 F9000 ; Print pattern perimeter
G1 X47.8164 Y105.4332 E1.13812 F9000 ; Print pattern perimeter
G1 E-0.5 F3600 ; Retract
G0 X51.2764 Y63.0068 F12000 ; Move to next pattern
G1 E0.5 F3600 ; Un-retract
SET_PRESSURE_ADVANCE ADVANCE=0.02 ; Set pressure advance
M117 PA 0.02
G1 X72.4896 Y84.22 E1.13812 F9000 ; Print pattern perimeter
G1 X51.2764 Y105.4332 E1.13812 F9000 ; Print pattern perimeter
G1 E-0.5 F3600 ; Retract
G0 X51.8662 Y63.0068 F12000 ; Move to start next pattern perimeter
G1 E0.5 F3600 ; Un-retract
G1 X73.0794 Y84.22 E1.13812 F9000 ; Print pattern perimeter
G1 X51.8662 Y105.4332 E1.13812 F9000 ; Print pattern perimeter
G1 E-0.5 F3600 ; Retract
G0 X52.4561 Y63.0068 F12000 ; Move to start next pattern perimeter
G1 E0.5 F3600 ; Un-retract
G1 X73.6693 Y84.22 E1.13812 F9000 ; Print pattern perimeter
G1 X52.4561 Y105.4332 E1.13812 F9000 ; Print pattern perimeter
G1 E-0.5 F3600 ; Retract
G0 X55.9161 Y63.0068 F12000 ; Move to next pattern
G1 E0.5 F3600 ; Un-retract
SET_PRESSURE_ADVANCE ADVANCE=0.025 ; Set pressure advance
M117 PA 0.025
G1 X77.1293 Y84.22 E1.13812 F9000 ; Print pattern perimeter
G1 X55.9161 Y105.4332 E1.13812 F9000 ; Print pattern perimeter
G1 E-0.5 F3600 ; Retract
G0 X56.5059 Y63.0068 F12000 ; Move to start next pattern perimeter
G1 E0.5 F3600 ; Un-retract
G1 X77.7191 Y84.22 E1.13812 F9000 ; Print pattern perimeter
G1 X56.5059 Y105.4332 E1.13812 F9000 ; Print pattern perimeter
G1 E-0.5 F3600 ; Retract
G0 X57.0957 Y63.0068 F12000 ; Move to start next pattern perimeter
G1 E0.5 F3600 ; Un-retract
G1 X78.309 Y84.22 E1.13812 F9000 ; Print pattern perimeter
G1 X57.0957 Y105.4332 E1.13812 F9000 ; Print pattern perimeter
G1 E-0.5 F3600 ; Retract
G0 X60.5557 Y63.0068 F12000 ; Move to next pattern
G1 E0.5 F3600 ; Un-retract
SET_PRESSURE_ADVANCE ADVANCE=0.03 ; Set pressure advance
M117 PA 0.03
G1 X81.769 Y84.22 E1.13812 F9000 ; Print pattern perimeter
G1 X60.5557 Y105.4332 E1.13812 F9000 ; Print pattern perimeter
G1 E-0.5 F3600 ; Retract
G0 X61.1456 Y63.0068 F12000 ; Move to start next pattern perimeter
G1 E0.5 F3600 ; Un-retract
G1 X82.3588 Y84.22 E1.13812 F9000 ; Print pattern perimeter
G1 X61.1456 Y105.4332 E1.13812 F9000 ; Print pattern perimeter
G1 E-0.5 F3600 ; Retract
G0 X61.7354 Y63.0068 F12000 ; Move to start next pattern perimeter
G1 E0.5 F3600 ; Un-retract
G1 X82.9486 Y84.22 E1.13812 F9000 ; Print pattern perimeter
G1 X61.7354 Y105.4332 E1.13812 F9000 ; Print pattern perimeter
G1 E-0.5 F3600 ; Retract
G0 X65.1954 Y63.0068 F12000 ; Move to next pattern
G1 E0.5 F3600 ; Un-retract
SET_PRESSURE_ADVANCE ADVANCE=0.035 ; Set pressure advance
M117 PA 0.035
G1 X86.4086 Y84.22 E1.13812 F9000 ; Print pattern perimeter
G1 X65.1954 Y105.4332 E1.13812 F9000 ; Print pattern perimeter
G1 E-0.5 F3600 ; Retract
G0 X65.7853 Y63.0068 F12000 ; Move to start next pattern perimeter
G1 E0.5 F3600 ; Un-retract
G1 X86.9985 Y84.22 E1.13812 F9000 ; Print pattern perimeter
G1 X65.7853 Y105.4332 E1.13812 F9000 ; Print pattern perimeter
G1 E-0.5 F3600 ; Retract
G0 X66.3751 Y63.0068 F12000 ; Move to start next pattern perimeter
G1 E0.5 F3600 ; Un-retract
G1 X87.5883 Y84.22 E1.13812 F9000 ; Print pattern perimeter
G1 X66.3751 Y105.4332 E1.13812 F9000 ; Print pattern perimeter
G1 E-0.5 F3600 ; Retract
G0 X69.8351 Y63.0068 F12000 ; Move to next pattern
G1 E0.5 F3600 ; Un-retract
SET_PRESSURE_ADVANCE ADVANCE=0.04 ; Set pressure advance
M117 PA 0.04
G1 X91.0483 Y84.22 E1.13812 F9000 ; Print pattern perimeter
G1 X69.8351 Y105.4332 E1.13812 F9000 ; Print pattern perimeter
G1 E-0.5 F3600 ; Retract
G0 X70.4249 Y63.0068 F12000 ; Move to start next pattern perimeter
G1 E0.5 F3600 ; Un-retract
G1 X91.6381 Y84.22 E1.13812 F9000 ; Print pattern perimeter
G1 X70.4249 Y105.4332 E1.13812 F9000 ; Print pattern perimeter
G1 E-0.5 F3600 ; Retract
G0 X71.0148 Y63.0068 F12000 ; Move to start next pattern perimeter
G1 E0.5 F3600 ; Un-retract
G1 X92.228 Y84.22 E1.13812 F9000 ; Print pattern perimeter
G1 X71.0148 Y105.4332 E1.13812 F9000 ; Print pattern perimeter
G1 E-0.5 F3600 ; Retract
G0 X74.4748 Y63.0068 F12000 ; Move to next pattern
G1 E0.5 F3600 ; Un-retract
SET_PRESSURE_ADVANCE ADVANCE=0.045 ; Set pressure advance
M117 PA 0.045
G1 X95.688 Y84.22 E1.13812 F9000 ; Print pattern perimeter
G1 X74.4748 Y105.4332 E1.13812 F9000 ; Print pattern perimeter
G1 E-0.5 F3600 ; Retract
G0 X75.0646 Y63.0068 F12000 ; Move to start next pattern perimeter
G1 E0.5 F3600 ; Un-retract
G1 X96.2778 Y84.22 E1.13812 F9000 ; Print pattern perimeter
G1 X75.0646 Y105.4332 E1.13812 F9000 ; Print pattern perimeter
G1 E-0.5 F3600 ; Retract
G0 X75.6545 Y63.0068 F12000 ; Move to start next pattern perimeter
G1 E0.5 F3600 ; Un-retract
G1 X96.8677 Y84.22 E1.13812 F9000 ; Print pattern perimeter
G1 X75.6545 Y105.4332 E1.13812 F9000 ; Print pattern perimeter
G1 E-0.5 F3600 ; Retract
G0 X79.1145 Y63.0068 F12000 ; Move to next pattern
G1 E0.5 F3600 ; Un-retract
SET_PRESSURE_ADVANCE ADVANCE=0.05 ; Set pressure advance
M117 PA 0.05
G1 X100.3277 Y84.22 E1.13812 F9000 ; Print pattern perimeter
G1 X79.1145 Y105.4332 E1.13812 F9000 ; Print pattern perimeter
G1 E-0.5 F3600 ; Retract
G0 X79.7043 Y63.0068 F12000 ; Move to start next pattern perimeter
G1 E0.5 F3600 ; Un-retract
G1 X100.9175 Y84.22 E1.13812 F9000 ; Print pattern perimeter
G1 X79.7043 Y105.4332 E1.13812 F9000 ; Print pattern perimeter
G1 E-0.5 F3600 ; Retract
G0 X80.2941 Y63.0068 F12000 ; Move to start next pattern perimeter
G1 E0.5 F3600 ; Un-retract
G1 X101.5073 Y84.22 E1.13812 F9000 ; Print pattern perimeter
G1 X80.2941 Y105.4332 E1.13812 F9000 ; Print pattern perimeter
G1 E-0.5 F3600 ; Retract
G0 X83.7541 Y63.0068 F12000 ; Move to next pattern
G1 E0.5 F3600 ; Un-retract
SET_PRESSURE_ADVANCE ADVANCE=0.055 ; Set pressure advance
M117 PA 0.055
G1 X104.9673 Y84.22 E1.13812 F9000 ; Print pattern perimeter
G1 X83.7541 Y105.4332 E1.13812 F9000 ; Print pattern perimeter
G1 E-0.5 F3600 ; Retract
G0 X84.344 Y63.0068 F12000 ; Move to start next pattern perimeter
G1 E0.5 F3600 ; Un-retract
G1 X105.5572 Y84.22 E1.13812 F9000 ; Print pattern perimeter
G1 X84.344 Y105.4332 E1.13812 F9000 ; Print pattern perimeter
G1 E-0.5 F3600 ; Retract
G0 X84.9338 Y63.0068 F12000 ; Move to start next pattern perimeter
G1 E0.5 F3600 ; Un-retract
G1 X106.147 Y84.22 E1.13812 F9000 ; Print pattern perimeter
G1 X84.9338 Y105.4332 E1.13812 F9000 ; Print pattern perimeter
G1 E-0.5 F3600 ; Retract
G0 X88.3938 Y63.0068 F12000 ; Move to next pattern
G1 E0.5 F3600 ; Un-retract
SET_PRESSURE_ADVANCE ADVANCE=0.06 ; Set pressure advance
M117 PA 0.06
G1 X109.607 Y84.22 E1.13812 F9000 ; Print pattern perimeter
G1 X88.3938 Y105.4332 E1.13812 F9000 ; Print pattern perimeter
G1 E-0.5 F3600 ; Retract
G0 X88.9837 Y63.0068 F12000 ; Move to start next pattern perimeter
G1 E0.5 F3600 ; Un-retract
G1 X110.1969 Y84.22 E1.13812 F9000 ; Print pattern perimeter
G1 X88.9837 Y105.4332 E1.13812 F9000 ; Print pattern perimeter
G1 E-0.5 F3600 ; Retract
G0 X89.5735 Y63.0068 F12000 ; Move to start next pattern perimeter
G1 E0.5 F3600 ; Un-retract
G1 X110.7867 Y84.22 E1.13812 F9000 ; Print pattern perimeter
G1 X89.5735 Y105.4332 E1.13812 F9000 ; Print pattern perimeter
G1 E-0.5 F3600 ; Retract
G0 X93.0335 Y63.0068 F12000 ; Move to next pattern
G1 E0.5 F3600 ; Un-retract
SET_PRESSURE_ADVANCE ADVANCE=0.065 ; Set pressure advance
M117 PA 0.065
G1 X114.2467 Y84.22 E1.13812 F9000 ; Print pattern perimeter
G1 X93.0335 Y105.4332 E1.13812 F9000 ; Print pattern perimeter
G1 E-0.5 F3600 ; Retract
G0 X93.6233 Y63.0068 F12000 ; Move to start next pattern perimeter
G1 E0.5 F3600 ; Un-retract
G1 X114.8365 Y84.22 E1.13812 F9000 ; Print pattern perimeter
G1 X93.6233 Y105.4332 E1.13812 F9000 ; Print pattern perimeter
G1 E-0.5 F3600 ; Retract
G0 X94.2132 Y63.0068 F12000 ; Move to start next pattern perimeter
G1 E0.5 F3600 ; Un-retract
G1 X115.4264 Y84.22 E1.13812 F9000 ; Print pattern perimeter
G1 X94.2132 Y105.4332 E1.13812 F9000 ; Print pattern perimeter
G1 E-0.5 F3600 ; Retract
G0 X97.6732 Y63.0068 F12000 ; Move to next pattern
G1 E0.5 F3600 ; Un-retract
SET_PRESSURE_ADVANCE ADVANCE=0.07 ; Set pressure advance
M117 PA 0.07
G1 X118.8864 Y84.22 E1.13812 F9000 ; Print pattern perimeter
G1 X97.6732 Y105.4332 E1.13812 F9000 ; Print pattern perimeter
G1 E-0.5 F3600 ; Retract
G0 X98.263 Y63.0068 F12000 ; Move to start next pattern perimeter
G1 E0.5 F3600 ; Un-retract
G1 X119.4762 Y84.22 E1.13812 F9000 ; Print pattern perimeter
G1 X98.263 Y105.4332 E1.13812 F9000 ; Print pattern perimeter
G1 E-0.5 F3600 ; Retract
G0 X98.8529 Y63.0068 F12000 ; Move to start next pattern perimeter
G1 E0.5 F3600 ; Un-retract
G1 X120.0661 Y84.22 E1.13812 F9000 ; Print pattern perimeter
G1 X98.8529 Y105.4332 E1.13812 F9000 ; Print pattern perimeter
G1 E-0.5 F3600 ; Retract
G0 X102.3129 Y63.0068 F12000 ; Move to next pattern
G1 E0.5 F3600 ; Un-retract
SET_PRESSURE_ADVANCE ADVANCE=0.075 ; Set pressure advance
M117 PA 0.075
G1 X123.5261 Y84.22 E1.13812 F9000 ; Print pattern perimeter
G1 X102.3129 Y105.4332 E1.13812 F9000 ; Print pattern perimeter
G1 E-0.5 F3600 ; Retract
G0 X102.9027 Y63.0068 F12000 ; Move to start next pattern perimeter
G1 E0.5 F3600 ; Un-retract
G1 X124.1159 Y84.22 E1.13812 F9000 ; Print pattern perimeter
G1 X102.9027 Y105.4332 E1.13812 F9000 ; Print pattern perimeter
G1 E-0.5 F3600 ; Retract
G0 X103.4925 Y63.0068 F12000 ; Move to start next pattern perimeter
G1 E0.5 F3600 ; Un-retract
G1 X124.7057 Y84.22 E1.13812 F9000 ; Print pattern perimeter
G1 X103.4925 Y105.4332 E1.13812 F9000 ; Print pattern perimeter
G1 E-0.5 F3600 ; Retract
G0 X106.9525 Y63.0068 F12000 ; Move to next pattern
G1 E0.5 F3600 ; Un-retract
SET_PRESSURE_ADVANCE ADVANCE=0.08 ; Set pressure advance
M117 PA 0.08
G1 X128.1657 Y84.22 E1.13812 F9000 ; Print pattern perimeter
G1 X106.9525 Y105.4332 E1.13812 F9000 ; Print pattern perimeter
G1 E-0.5 F3600 ; Retract
G0 X107.5424 Y63.0068 F12000 ; Move to start next pattern perimeter
G1 E0.5 F3600 ; Un-retract
G1 X128.7556 Y84.22 E1.13812 F9000 ; Print pattern perimeter
G1 X107.5424 Y105.4332 E1.13812 F9000 ; Print pattern perimeter
G1 E-0.5 F3600 ; Retract
G0 X108.1322 Y63.0068 F12000 ; Move to start next pattern perimeter
G1 E0.5 F3600 ; Un-retract
G1 X129.3454 Y84.22 E1.13812 F9000 ; Print pattern perimeter
G1 X108.1322 Y105.4332 E1.13812 F9000 ; Print pattern perimeter
G1 E-0.5 F3600 ; Retract
G0 X111.5922 Y63.0068 F12000 ; Move to next pattern
G1 E0.5 F3600 ; Un-retract
SET_PRESSURE_ADVANCE ADVANCE=0.085 ; Set pressure advance
M117 PA 0.085
G1 X132.8054 Y84.22 E1.13812 F9000 ; Print pattern perimeter
G1 X111.5922 Y105.4332 E1.13812 F9000 ; Print pattern perimeter
G1 E-0.5 F3600 ; Retract
G0 X112.1821 Y63.0068 F12000 ; Move to start next pattern perimeter
G1 E0.5 F3600 ; Un-retract
G1 X133.3953 Y84.22 E1.13812 F9000 ; Print pattern perimeter
G1 X112.1821 Y105.4332 E1.13812 F9000 ; Print pattern perimeter
G1 E-0.5 F3600 ; Retract
G0 X112.7719 Y63.0068 F12000 ; Move to start next pattern perimeter
G1 E0.5 F3600 ; Un-retract
G1 X133.9851 Y84.22 E1.13812 F9000 ; Print pattern perimeter
G1 X112.7719 Y105.4332 E1.13812 F9000 ; Print pattern perimeter
G1 E-0.5 F3600 ; Retract
G0 X116.2319 Y63.0068 F12000 ; Move to next pattern
G1 E0.5 F3600 ; Un-retract
SET_PRESSURE_ADVANCE ADVANCE=0.09 ; Set pressure advance
M117 PA 0.09
G1 X137.4451 Y84.22 E1.13812 F9000 ; Print pattern perimeter
G1 X116.2319 Y105.4332 E1.13812 F9000 ; Print pattern perimeter
G1 E-0.5 F3600 ; Retract
G0 X116.8217 Y63.0068 F12000 ; Move to start next pattern perimeter
G1 E0.5 F3600 ; Un-retract
G1 X138.0349 Y84.22 E1.13812 F9000 ; Print pattern perimeter
G1 X116.8217 Y105.4332 E1.13812 F9000 ; Print pattern perimeter
G1 E-0.5 F3600 ; Retract
G0 X117.4116 Y63.0068 F12000 ; Move to start next pattern perimeter
G1 E0.5 F3600 ; Un-retract
G1 X138.6248 Y84.22 E1.13812 F9000 ; Print pattern perimeter
G1 X117.4116 Y105.4332 E1.13812 F9000 ; Print pattern perimeter
G1 E-0.5 F3600 ; Retract
G0 X120.8716 Y63.0068 F12000 ; Move to next pattern
G1 E0.5 F3600 ; Un-retract
SET_PRESSURE_ADVANCE ADVANCE=0.095 ; Set pressure advance
M117 PA 0.095
G1 X142.0848 Y84.22 E1.13812 F9000 ; Print pattern perimeter
G1 X120.8716 Y105.4332 E1.13812 F9000 ; Print pattern perimeter
G1 E-0.5 F3600 ; Retract
G0 X121.4614 Y63.0068 F12000 ; Move to start next pattern perimeter
G1 E0.5 F3600 ; Un-retract
G1 X142.6746 Y84.22 E1.13812 F9000 ; Print pattern perimeter
G1 X121.4614 Y105.4332 E1.13812 F9000 ; Print pattern perimeter
G1 E-0.5 F3600 ; Retract
G0 X122.0513 Y63.0068 F12000 ; Move to start next pattern perimeter
G1 E0.5 F3600 ; Un-retract
G1 X143.2645 Y84.22 E1.13812 F9000 ; Print pattern perimeter
G1 X122.0513 Y105.4332 E1.13812 F9000 ; Print pattern perimeter
G1 E-0.5 F3600 ; Retract
G0 X125.5113 Y63.0068 F12000 ; Move to next pattern
G1 E0.5 F3600 ; Un-retract
SET_PRESSURE_ADVANCE ADVANCE=0.1 ; Set pressure advance
M117 PA 0.1
G1 X146.7245 Y84.22 E1.13812 F9000 ; Print pattern perimeter
G1 X125.5113 Y105.4332 E1.13812 F9000 ; Print pattern perimeter
G1 E-0.5 F3600 ; Retract
G0 X126.1011 Y63.0068 F12000 ; Move to start next pattern perimeter
G1 E0.5 F3600 ; Un-retract
G1 X147.3143 Y84.22 E1.13812 F9000 ; Print pattern perimeter
G1 X126.1011 Y105.4332 E1.13812 F9000 ; Print pattern perimeter
G1 E-0.5 F3600 ; Retract
G0 X126.6909 Y63.0068 F12000 ; Move to start next pattern perimeter
G1 E0.5 F3600 ; Un-retract
G1 X147.9041 Y84.22 E1.13812 F9000 ; Print pattern perimeter
G1 X126.6909 Y105.4332 E1.13812 F9000 ; Print pattern perimeter
G1 E-0.5 F3600 ; Retract
G0 X32.7177 Y63.0068 F12000 ; Move back to start position
G1 E0.5 F3600 ; Un-retract
G0 Z0.65 F12000 ; Move to layer height
SET_PRESSURE_ADVANCE ADVANCE=0 ; Set pressure advance
M117 PA 0
G1 X53.9309 Y84.22 E1.13812 F9000 ; Print pattern perimeter
G1 X32.7177 Y105.4332 E1.13812 F9000 ; Print pattern perimeter
G1 E-0.5 F3600 ; Retract
G0 X33.3075 Y63.0068 F12000 ; Move to start next pattern perimeter
G1 E0.5 F3600 ; Un-retract
G1 X54.5207 Y84.22 E1.13812 F9000 ; Print pattern perimeter
G1 X33.3075 Y105.4332 E1.13812 F9000 ; Print pattern perimeter
G1 E-0.5 F3600 ; Retract
G0 X33.8974 Y63.0068 F12000 ; Move to start next pattern perimeter
G1 E0.5 F3600 ; Un-retract
G1 X55.1106 Y84.22 E1.13812 F9000 ; Print pattern perimeter
G1 X33.8974 Y105.4332 E1.13812 F9000 ; Print pattern perimeter
G1 E-0.5 F3600 ; Retract
G0 X37.3574 Y63.0068 F12000 ; Move to next pattern
G1 E0.5 F3600 ; Un-retract
SET_PRESSURE_ADVANCE ADVANCE=0.005 ; Set pressure advance
M117 PA 0.005
G1 X58.5706 Y84.22 E1.13812 F9000 ; Print pattern perimeter
G1 X37.3574 Y105.4332 E1.13812 F9000 ; Print pattern perimeter
G1 E-0.5 F3600 ; Retract
G0 X37.9472 Y63.0068 F12000 ; Move to start next pattern perimeter
G1 E0.5 F3600 ; Un-retract
G1 X59.1604 Y84.22 E1.13812 F9000 ; Print pattern perimeter
G1 X37.9472 Y105.4332 E1.13812 F9000 ; Print pattern perimeter
G1 E-0.5 F3600 ; Retract
G0 X38.537 Y63.0068 F12000 ; Move to start next pattern perimeter
G1 E0.5 F3600 ; Un-retract
G1 X59.7502 Y84.22 E1.13812 F9000 ; Print pattern perimeter
G1 X38.537 Y105.4332 E1.13812 F9000 ; Print pattern perimeter
G1 E-0.5 F3600 ; Retract
G0 X41.997 Y63.0068 F12000 ; Move to next pattern
G1 E0.5 F3600 ; Un-retract
SET_PRESSURE_ADVANCE ADVANCE=0.01 ; Set pressure advance
M117 PA 0.01
G1 X63.2102 Y84.22 E1.13812 F9000 ; Print pattern perimeter
G1 X41.997 Y105.4332 E1.13812 F9000 ; Print pattern perimeter
G1 E-0.5 F3600 ; Retract
G0 X42.5869 Y63.0068 F12000 ; Move to start next pattern perimeter
G1 E0.5 F3600 ; Un-retract
G1 X63.8001 Y84.22 E1.13812 F9000 ; Print pattern perimeter
G1 X42.5869 Y105.4332 E1.13812 F9000 ; Print pattern perimeter
G1 E-0.5 F3600 ; Retract
G0 X43.1767 Y63.0068 F12000 ; Move to start next pattern perimeter
G1 E0.5 F3600 ; Un-retract
G1 X64.3899 Y84.22 E1.13812 F9000 ; Print pattern perimeter
G1 X43.1767 Y105.4332 E1.13812 F9000 ; Print pattern perimeter
G1 E-0.5 F3600 ; Retract
G0 X46.6367 Y63.0068 F12000 ; Move to next pattern
G1 E0.5 F3600 ; Un-retract
SET_PRESSURE_ADVANCE ADVANCE=0.015 ; Set pressure advance
M117 PA 0.015
G1 X67.8499 Y84.22 E1.13812 F9000 ; Print pattern perimeter
G1 X46.6367 Y105.4332 E1.13812 F9000 ; Print pattern perimeter
G1 E-0.5 F3600 ; Retract
G0 X47.2265 Y63.0068 F12000 ; Move to start next pattern perimeter
G1 E0.5 F3600 ; Un-retract
G1 X68.4398 Y84.22 E1.13812 F9000 ; Print pattern perimeter
G1 X47.2265 Y105.4332 E1.13812 F9000 ; Print pattern perimeter
G1 E-0.5 F3600 ; Retract
G0 X47.8164 Y63.0068 F12000 ; Move to start next pattern perimeter
G1 E0.5 F3600 ; Un-retract
G1 X69.0296 Y84.22 E1.13812 F9000 ; Print pattern perimeter
G1 X47.8164 Y105.4332 E1.13812 F9000 ; Print pattern perimeter
G1 E-0.5 F3600 ; Retract
G0 X51.2764 Y63.0068 F12000 ; Move to next pattern
G1 E0.5 F3600 ; Un-retract
SET_PRESSURE_ADVANCE ADVANCE=0.02 ; Set pressure advance
M117 PA 0.02
G1 X72.4896 Y84.22 E1.13812 F9000 ; Print pattern perimeter
G1 X51.2764 Y105.4332 E1.13812 F9000 ; Print pattern perimeter
G1 E-0.5 F3600 ; Retract
G0 X51.8662 Y63.0068 F12000 ; Move to start next pattern perimeter
G1 E0.5 F3600 ; Un-retract
G1 X73.0794 Y84.22 E1.13812 F9000 ; Print pattern perimeter
G1 X51.8662 Y105.4332 E1.13812 F9000 ; Print pattern perimeter
G1 E-0.5 F3600 ; Retract
G0 X52.4561 Y63.0068 F12000 ; Move to start next pattern perimeter
G1 E0.5 F3600 ; Un-retract
G1 X73.6693 Y84.22 E1.13812 F9000 ; Print pattern perimeter
G1 X52.4561 Y105.4332 E1.13812 F9000 ; Print pattern perimeter
G1 E-0.5 F3600 ; Retract
G0 X55.9161 Y63.0068 F12000 ; Move to next pattern
G1 E0.5 F3600 ; Un-retract
SET_PRESSURE_ADVANCE ADVANCE=0.025 ; Set pressure advance
M117 PA 0.025
G1 X77.1293 Y84.22 E1.13812 F9000 ; Print pattern perimeter
G1 X55.9161 Y105.4332 E1.13812 F9000 ; Print pattern perimeter
G1 E-0.5 F3600 ; Retract
G0 X56.5059 Y63.0068 F12000 ; Move to start next pattern perimeter
G1 E0.5 F3600 ; Un-retract
G1 X77.7191 Y84.22 E1.13812 F9000 ; Print pattern perimeter
G1 X56.5059 Y105.4332 E1.13812 F9000 ; Print pattern perimeter
G1 E-0.5 F3600 ; Retract
G0 X57.0957 Y63.0068 F12000 ; Move to start next pattern perimeter
G1 E0.5 F3600 ; Un-retract
G1 X78.309 Y84.22 E1.13812 F9000 ; Print pattern perimeter
G1 X57.0957 Y105.4332 E1.13812 F9000 ; Print pattern perimeter
G1 E-0.5 F3600 ; Retract
G0 X60.5557 Y63.0068 F12000 ; Move to next pattern
G1 E0.5 F3600 ; Un-retract
SET_PRESSURE_ADVANCE ADVANCE=0.03 ; Set pressure advance
M117 PA 0.03
G1 X81.769 Y84.22 E1.13812 F9000 ; Print pattern perimeter
G1 X60.5557 Y105.4332 E1.13812 F9000 ; Print pattern perimeter
G1 E-0.5 F3600 ; Retract
G0 X61.1456 Y63.0068 F12000 ; Move to start next pattern perimeter
G1 E0.5 F3600 ; Un-retract
G1 X82.3588 Y84.22 E1.13812 F9000 ; Print pattern perimeter
G1 X61.1456 Y105.4332 E1.13812 F9000 ; Print pattern perimeter
G1 E-0.5 F3600 ; Retract
G0 X61.7354 Y63.0068 F12000 ; Move to start next pattern perimeter
G1 E0.5 F3600 ; Un-retract
G1 X82.9486 Y84.22 E1.13812 F9000 ; Print pattern perimeter
G1 X61.7354 Y105.4332 E1.13812 F9000 ; Print pattern perimeter
G1 E-0.5 F3600 ; Retract
G0 X65.1954 Y63.0068 F12000 ; Move to next pattern
G1 E0.5 F3600 ; Un-retract
SET_PRESSURE_ADVANCE ADVANCE=0.035 ; Set pressure advance
M117 PA 0.035
G1 X86.4086 Y84.22 E1.13812 F9000 ; Print pattern perimeter
G1 X65.1954 Y105.4332 E1.13812 F9000 ; Print pattern perimeter
G1 E-0.5 F3600 ; Retract
G0 X65.7853 Y63.0068 F12000 ; Move to start next pattern perimeter
G1 E0.5 F3600 ; Un-retract
G1 X86.9985 Y84.22 E1.13812 F9000 ; Print pattern perimeter
G1 X65.7853 Y105.4332 E1.13812 F9000 ; Print pattern perimeter
G1 E-0.5 F3600 ; Retract
G0 X66.3751 Y63.0068 F12000 ; Move to start next pattern perimeter
G1 E0.5 F3600 ; Un-retract
G1 X87.5883 Y84.22 E1.13812 F9000 ; Print pattern perimeter
G1 X66.3751 Y105.4332 E1.13812 F9000 ; Print pattern perimeter
G1 E-0.5 F3600 ; Retract
G0 X69.8351 Y63.0068 F12000 ; Move to next pattern
G1 E0.5 F3600 ; Un-retract
SET_PRESSURE_ADVANCE ADVANCE=0.04 ; Set pressure advance
M117 PA 0.04
G1 X91.0483 Y84.22 E1.13812 F9000 ; Print pattern perimeter
G1 X69.8351 Y105.4332 E1.13812 F9000 ; Print pattern perimeter
G1 E-0.5 F3600 ; Retract
G0 X70.4249 Y63.0068 F12000 ; Move to start next pattern perimeter
G1 E0.5 F3600 ; Un-retract
G1 X91.6381 Y84.22 E1.13812 F9000 ; Print pattern perimeter
G1 X70.4249 Y105.4332 E1.13812 F9000 ; Print pattern perimeter
G1 E-0.5 F3600 ; Retract
G0 X71.0148 Y63.0068 F12000 ; Move to start next pattern perimeter
G1 E0.5 F3600 ; Un-retract
G1 X92.228 Y84.22 E1.13812 F9000 ; Print pattern perimeter
G1 X71.0148 Y105.4332 E1.13812 F9000 ; Print pattern perimeter
G1 E-0.5 F3600 ; Retract
G0 X74.4748 Y63.0068 F12000 ; Move to next pattern
G1 E0.5 F3600 ; Un-retract
SET_PRESSURE_ADVANCE ADVANCE=0.045 ; Set pressure advance
M117 PA 0.045
G1 X95.688 Y84.22 E1.13812 F9000 ; Print pattern perimeter
G1 X74.4748 Y105.4332 E1.13812 F9000 ; Print pattern perimeter
G1 E-0.5 F3600 ; Retract
G0 X75.0646 Y63.0068 F12000 ; Move to start next pattern perimeter
G1 E0.5 F3600 ; Un-retract
G1 X96.2778 Y84.22 E1.13812 F9000 ; Print pattern perimeter
G1 X75.0646 Y105.4332 E1.13812 F9000 ; Print pattern perimeter
G1 E-0.5 F3600 ; Retract
G0 X75.6545 Y63.0068 F12000 ; Move to start next pattern perimeter
G1 E0.5 F3600 ; Un-retract
G1 X96.8677 Y84.22 E1.13812 F9000 ; Print pattern perimeter
G1 X75.6545 Y105.4332 E1.13812 F9000 ; Print pattern perimeter
G1 E-0.5 F3600 ; Retract
G0 X79.1145 Y63.0068 F12000 ; Move to next pattern
G1 E0.5 F3600 ; Un-retract
SET_PRESSURE_ADVANCE ADVANCE=0.05 ; Set pressure advance
M117 PA 0.05
G1 X100.3277 Y84.22 E1.13812 F9000 ; Print pattern perimeter
G1 X79.1145 Y105.4332 E1.13812 F9000 ; Print pattern perimeter
G1 E-0.5 F3600 ; Retract
G0 X79.7043 Y63.0068 F12000 ; Move to start next pattern perimeter
G1 E0.5 F3600 ; Un-retract
G1 X100.9175 Y84.22 E1.13812 F9000 ; Print pattern perimeter
G1 X79.7043 Y105.4332 E1.13812 F9000 ; Print pattern perimeter
G1 E-0.5 F3600 ; Retract
G0 X80.2941 Y63.0068 F12000 ; Move to start next pattern perimeter
G1 E0.5 F3600 ; Un-retract
G1 X101.5073 Y84.22 E1.13812 F9000 ; Print pattern perimeter
G1 X80.2941 Y105.4332 E1.13812 F9000 ; Print pattern perimeter
G1 E-0.5 F3600 ; Retract
G0 X83.7541 Y63.0068 F12000 ; Move to next pattern
G1 E0.5 F3600 ; Un-retract
SET_PRESSURE_ADVANCE ADVANCE=0.055 ; Set pressure advance
M117 PA 0.055
G1 X104.9673 Y84.22 E1.13812 F9000 ; Print pattern perimeter
G1 X83.7541 Y105.4332 E1.13812 F9000 ; Print pattern perimeter
G1 E-0.5 F3600 ; Retract
G0 X84.344 Y63.0068 F12000 ; Move to start next pattern perimeter
G1 E0.5 F3600 ; Un-retract
G1 X105.5572 Y84.22 E1.13812 F9000 ; Print pattern perimeter
G1 X84.344 Y105.4332 E1.13812 F9000 ; Print pattern perimeter
G1 E-0.5 F3600 ; Retract
G0 X84.9338 Y63.0068 F12000 ; Move to start next pattern perimeter
G1 E0.5 F3600 ; Un-retract
G1 X106.147 Y84.22 E1.13812 F9000 ; Print pattern perimeter
G1 X84.9338 Y105.4332 E1.13812 F9000 ; Print pattern perimeter
G1 E-0.5 F3600 ; Retract
G0 X88.3938 Y63.0068 F12000 ; Move to next pattern
G1 E0.5 F3600 ; Un-retract
SET_PRESSURE_ADVANCE ADVANCE=0.06 ; Set pressure advance
M117 PA 0.06
G1 X109.607 Y84.22 E1.13812 F9000 ; Print pattern perimeter
G1 X88.3938 Y105.4332 E1.13812 F9000 ; Print pattern perimeter
G1 E-0.5 F3600 ; Retract
G0 X88.9837 Y63.0068 F12000 ; Move to start next pattern perimeter
G1 E0.5 F3600 ; Un-retract
G1 X110.1969 Y84.22 E1.13812 F9000 ; Print pattern perimeter
G1 X88.9837 Y105.4332 E1.13812 F9000 ; Print pattern perimeter
G1 E-0.5 F3600 ; Retract
G0 X89.5735 Y63.0068 F12000 ; Move to start next pattern perimeter
G1 E0.5 F3600 ; Un-retract
G1 X110.7867 Y84.22 E1.13812 F9000 ; Print pattern perimeter
G1 X89.5735 Y105.4332 E1.13812 F9000 ; Print pattern perimeter
G1 E-0.5 F3600 ; Retract
G0 X93.0335 Y63.0068 F12000 ; Move to next pattern
G1 E0.5 F3600 ; Un-retract
SET_PRESSURE_ADVANCE ADVANCE=0.065 ; Set pressure advance
M117 PA 0.065
G1 X114.2467 Y84.22 E1.13812 F9000 ; Print pattern perimeter
G1 X93.0335 Y105.4332 E1.13812 F9000 ; Print pattern perimeter
G1 E-0.5 F3600 ; Retract
G0 X93.6233 Y63.0068 F12000 ; Move to start next pattern perimeter
G1 E0.5 F3600 ; Un-retract
G1 X114.8365 Y84.22 E1.13812 F9000 ; Print pattern perimeter
G1 X93.6233 Y105.4332 E1.13812 F9000 ; Print pattern perimeter
G1 E-0.5 F3600 ; Retract
G0 X94.2132 Y63.0068 F12000 ; Move to start next pattern perimeter
G1 E0.5 F3600 ; Un-retract
G1 X115.4264 Y84.22 E1.13812 F9000 ; Print pattern perimeter
G1 X94.2132 Y105.4332 E1.13812 F9000 ; Print pattern perimeter
G1 E-0.5 F3600 ; Retract
G0 X97.6732 Y63.0068 F12000 ; Move to next pattern
G1 E0.5 F3600 ; Un-retract
SET_PRESSURE_ADVANCE ADVANCE=0.07 ; Set pressure advance
M117 PA 0.07
G1 X118.8864 Y84.22 E1.13812 F9000 ; Print pattern perimeter
G1 X97.6732 Y105.4332 E1.13812 F9000 ; Print pattern perimeter
G1 E-0.5 F3600 ; Retract
G0 X98.263 Y63.0068 F12000 ; Move to start next pattern perimeter
G1 E0.5 F3600 ; Un-retract
G1 X119.4762 Y84.22 E1.13812 F9000 ; Print pattern perimeter
G1 X98.263 Y105.4332 E1.13812 F9000 ; Print pattern perimeter
G1 E-0.5 F3600 ; Retract
G0 X98.8529 Y63.0068 F12000 ; Move to start next pattern perimeter
G1 E0.5 F3600 ; Un-retract
G1 X120.0661 Y84.22 E1.13812 F9000 ; Print pattern perimeter
G1 X98.8529 Y105.4332 E1.13812 F9000 ; Print pattern perimeter
G1 E-0.5 F3600 ; Retract
G0 X102.3129 Y63.0068 F12000 ; Move to next pattern
G1 E0.5 F3600 ; Un-retract
SET_PRESSURE_ADVANCE ADVANCE=0.075 ; Set pressure advance
M117 PA 0.075
G1 X123.5261 Y84.22 E1.13812 F9000 ; Print pattern perimeter
G1 X102.3129 Y105.4332 E1.13812 F9000 ; Print pattern perimeter
G1 E-0.5 F3600 ; Retract
G0 X102.9027 Y63.0068 F12000 ; Move to start next pattern perimeter
G1 E0.5 F3600 ; Un-retract
G1 X124.1159 Y84.22 E1.13812 F9000 ; Print pattern perimeter
G1 X102.9027 Y105.4332 E1.13812 F9000 ; Print pattern perimeter
G1 E-0.5 F3600 ; Retract
G0 X103.4925 Y63.0068 F12000 ; Move to start next pattern perimeter
G1 E0.5 F3600 ; Un-retract
G1 X124.7057 Y84.22 E1.13812 F9000 ; Print pattern perimeter
G1 X103.4925 Y105.4332 E1.13812 F9000 ; Print pattern perimeter
G1 E-0.5 F3600 ; Retract
G0 X106.9525 Y63.0068 F12000 ; Move to next pattern
G1 E0.5 F3600 ; Un-retract
SET_PRESSURE_ADVANCE ADVANCE=0.08 ; Set pressure advance
M117 PA 0.08
G1 X128.1657 Y84.22 E1.13812 F9000 ; Print pattern perimeter
G1 X106.9525 Y105.4332 E1.13812 F9000 ; Print pattern perimeter
G1 E-0.5 F3600 ; Retract
G0 X107.5424 Y63.0068 F12000 ; Move to start next pattern perimeter
G1 E0.5 F3600 ; Un-retract
G1 X128.7556 Y84.22 E1.13812 F9000 ; Print pattern perimeter
G1 X107.5424 Y105.4332 E1.13812 F9000 ; Print pattern perimeter
G1 E-0.5 F3600 ; Retract
G0 X108.1322 Y63.0068 F12000 ; Move to start next pattern perimeter
G1 E0.5 F3600 ; Un-retract
G1 X129.3454 Y84.22 E1.13812 F9000 ; Print pattern perimeter
G1 X108.1322 Y105.4332 E1.13812 F9000 ; Print pattern perimeter
G1 E-0.5 F3600 ; Retract
G0 X111.5922 Y63.0068 F12000 ; Move to next pattern
G1 E0.5 F3600 ; Un-retract
SET_PRESSURE_ADVANCE ADVANCE=0.085 ; Set pressure advance
M117 PA 0.085
G1 X132.8054 Y84.22 E1.13812 F9000 ; Print pattern perimeter
G1 X111.5922 Y105.4332 E1.13812 F9000 ; Print pattern perimeter
G1 E-0.5 F3600 ; Retract
G0 X112.1821 Y63.0068 F12000 ; Move to start next pattern perimeter
G1 E0.5 F3600 ; Un-retract
G1 X133.3953 Y84.22 E1.13812 F9000 ; Print pattern perimeter
G1 X112.1821 Y105.4332 E1.13812 F9000 ; Print pattern perimeter
G1 E-0.5 F3600 ; Retract
G0 X112.7719 Y63.0068 F12000 ; Move to start next pattern perimeter
G1 E0.5 F3600 ; Un-retract
G1 X133.9851 Y84.22 E1.13812 F9000 ; Print pattern perimeter
G1 X112.7719 Y105.4332 E1.13812 F9000 ; Print pattern perimeter
G1 E-0.5 F3600 ; Retract
G0 X116.2319 Y63.0068 F12000 ; Move to next pattern
G1 E0.5 F3600 ; Un-retract
SET_PRESSURE_ADVANCE ADVANCE=0.09 ; Set pressure advance
M117 PA 0.09
G1 X137.4451 Y84.22 E1.13812 F9000 ; Print pattern perimeter
G1 X116.2319 Y105.4332 E1.13812 F9000 ; Print pattern perimeter
G1 E-0.5 F3600 ; Retract
G0 X116.8217 Y63.0068 F12000 ; Move to start next pattern perimeter
G1 E0.5 F3600 ; Un-retract
G1 X138.0349 Y84.22 E1.13812 F9000 ; Print pattern perimeter
G1 X116.8217 Y105.4332 E1.13812 F9000 ; Print pattern perimeter
G1 E-0.5 F3600 ; Retract
G0 X117.4116 Y63.0068 F12000 ; Move to start next pattern perimeter
G1 E0.5 F3600 ; Un-retract
G1 X138.6248 Y84.22 E1.13812 F9000 ; Print pattern perimeter
G1 X117.4116 Y105.4332 E1.13812 F9000 ; Print pattern perimeter
G1 E-0.5 F3600 ; Retract
G0 X120.8716 Y63.0068 F12000 ; Move to next pattern
G1 E0.5 F3600 ; Un-retract
SET_PRESSURE_ADVANCE ADVANCE=0.095 ; Set pressure advance
M117 PA 0.095
G1 X142.0848 Y84.22 E1.13812 F9000 ; Print pattern perimeter
G1 X120.8716 Y105.4332 E1.13812 F9000 ; Print pattern perimeter
G1 E-0.5 F3600 ; Retract
G0 X121.4614 Y63.0068 F12000 ; Move to start next pattern perimeter
G1 E0.5 F3600 ; Un-retract
G1 X142.6746 Y84.22 E1.13812 F9000 ; Print pattern perimeter
G1 X121.4614 Y105.4332 E1.13812 F9000 ; Print pattern perimeter
G1 E-0.5 F3600 ; Retract
G0 X122.0513 Y63.0068 F12000 ; Move to start next pattern perimeter
G1 E0.5 F3600 ; Un-retract
G1 X143.2645 Y84.22 E1.13812 F9000 ; Print pattern perimeter
G1 X122.0513 Y105.4332 E1.13812 F9000 ; Print pattern perimeter
G1 E-0.5 F3600 ; Retract
G0 X125.5113 Y63.0068 F12000 ; Move to next pattern
G1 E0.5 F3600 ; Un-retract
SET_PRESSURE_ADVANCE ADVANCE=0.1 ; Set pressure advance
M117 PA 0.1
G1 X146.7245 Y84.22 E1.13812 F9000 ; Print pattern perimeter
G1 X125.5113 Y105.4332 E1.13812 F9000 ; Print pattern perimeter
G1 E-0.5 F3600 ; Retract
G0 X126.1011 Y63.0068 F12000 ; Move to start next pattern perimeter
G1 E0.5 F3600 ; Un-retract
G1 X147.3143 Y84.22 E1.13812 F9000 ; Print pattern perimeter
G1 X126.1011 Y105.4332 E1.13812 F9000 ; Print pattern perimeter
G1 E-0.5 F3600 ; Retract
G0 X126.6909 Y63.0068 F12000 ; Move to start next pattern perimeter
G1 E0.5 F3600 ; Un-retract
G1 X147.9041 Y84.22 E1.13812 F9000 ; Print pattern perimeter
G1 X126.6909 Y105.4332 E1.13812 F9000 ; Print pattern perimeter
G1 E-0.5 F3600 ; Retract
G0 X32.7177 Y63.0068 F12000 ; Move back to start position
G1 E0.5 F3600 ; Un-retract
G0 Z0.85 F12000 ; Move to layer height
SET_PRESSURE_ADVANCE ADVANCE=0 ; Set pressure advance
M117 PA 0
G1 X53.9309 Y84.22 E1.13812 F9000 ; Print pattern perimeter
G1 X32.7177 Y105.4332 E1.13812 F9000 ; Print pattern perimeter
G1 E-0.5 F3600 ; Retract
G0 X33.3075 Y63.0068 F12000 ; Move to start next pattern perimeter
G1 E0.5 F3600 ; Un-retract
G1 X54.5207 Y84.22 E1.13812 F9000 ; Print pattern perimeter
G1 X33.3075 Y105.4332 E1.13812 F9000 ; Print pattern perimeter
G1 E-0.5 F3600 ; Retract
G0 X33.8974 Y63.0068 F12000 ; Move to start next pattern perimeter
G1 E0.5 F3600 ; Un-retract
G1 X55.1106 Y84.22 E1.13812 F9000 ; Print pattern perimeter
G1 X33.8974 Y105.4332 E1.13812 F9000 ; Print pattern perimeter
G1 E-0.5 F3600 ; Retract
G0 X37.3574 Y63.0068 F12000 ; Move to next pattern
G1 E0.5 F3600 ; Un-retract
SET_PRESSURE_ADVANCE ADVANCE=0.005 ; Set pressure advance
M117 PA 0.005
G1 X58.5706 Y84.22 E1.13812 F9000 ; Print pattern perimeter
G1 X37.3574 Y105.4332 E1.13812 F9000 ; Print pattern perimeter
G1 E-0.5 F3600 ; Retract
G0 X37.9472 Y63.0068 F12000 ; Move to start next pattern perimeter
G1 E0.5 F3600 ; Un-retract
G1 X59.1604 Y84.22 E1.13812 F9000 ; Print pattern perimeter
G1 X37.9472 Y105.4332 E1.13812 F9000 ; Print pattern perimeter
G1 E-0.5 F3600 ; Retract
G0 X38.537 Y63.0068 F12000 ; Move to start next pattern perimeter
G1 E0.5 F3600 ; Un-retract
G1 X59.7502 Y84.22 E1.13812 F9000 ; Print pattern perimeter
G1 X38.537 Y105.4332 E1.13812 F9000 ; Print pattern perimeter
G1 E-0.5 F3600 ; Retract
G0 X41.997 Y63.0068 F12000 ; Move to next pattern
G1 E0.5 F3600 ; Un-retract
SET_PRESSURE_ADVANCE ADVANCE=0.01 ; Set pressure advance
M117 PA 0.01
G1 X63.2102 Y84.22 E1.13812 F9000 ; Print pattern perimeter
G1 X41.997 Y105.4332 E1.13812 F9000 ; Print pattern perimeter
G1 E-0.5 F3600 ; Retract
G0 X42.5869 Y63.0068 F12000 ; Move to start next pattern perimeter
G1 E0.5 F3600 ; Un-retract
G1 X63.8001 Y84.22 E1.13812 F9000 ; Print pattern perimeter
G1 X42.5869 Y105.4332 E1.13812 F9000 ; Print pattern perimeter
G1 E-0.5 F3600 ; Retract
G0 X43.1767 Y63.0068 F12000 ; Move to start next pattern perimeter
G1 E0.5 F3600 ; Un-retract
G1 X64.3899 Y84.22 E1.13812 F9000 ; Print pattern perimeter
G1 X43.1767 Y105.4332 E1.13812 F9000 ; Print pattern perimeter
G1 E-0.5 F3600 ; Retract
G0 X46.6367 Y63.0068 F12000 ; Move to next pattern
G1 E0.5 F3600 ; Un-retract
SET_PRESSURE_ADVANCE ADVANCE=0.015 ; Set pressure advance
M117 PA 0.015
G1 X67.8499 Y84.22 E1.13812 F9000 ; Print pattern perimeter
G1 X46.6367 Y105.4332 E1.13812 F9000 ; Print pattern perimeter
G1 E-0.5 F3600 ; Retract
G0 X47.2265 Y63.0068 F12000 ; Move to start next pattern perimeter
G1 E0.5 F3600 ; Un-retract
G1 X68.4398 Y84.22 E1.13812 F9000 ; Print pattern perimeter
G1 X47.2265 Y105.4332 E1.13812 F9000 ; Print pattern perimeter
G1 E-0.5 F3600 ; Retract
G0 X47.8164 Y63.0068 F12000 ; Move to start next pattern perimeter
G1 E0.5 F3600 ; Un-retract
G1 X69.0296 Y84.22 E1.13812 F9000 ; Print pattern perimeter
G1 X47.8164 Y105.4332 E1.13812 F9000 ; Print pattern perimeter
G1 E-0.5 F3600 ; Retract
G0 X51.2764 Y63.0068 F12000 ; Move to next pattern
G1 E0.5 F3600 ; Un-retract
SET_PRESSURE_ADVANCE ADVANCE=0.02 ; Set pressure advance
M117 PA 0.02
G1 X72.4896 Y84.22 E1.13812 F9000 ; Print pattern perimeter
G1 X51.2764 Y105.4332 E1.13812 F9000 ; Print pattern perimeter
G1 E-0.5 F3600 ; Retract
G0 X51.8662 Y63.0068 F12000 ; Move to start next pattern perimeter
G1 E0.5 F3600 ; Un-retract
G1 X73.0794 Y84.22 E1.13812 F9000 ; Print pattern perimeter
G1 X51.8662 Y105.4332 E1.13812 F9000 ; Print pattern perimeter
G1 E-0.5 F3600 ; Retract
G0 X52.4561 Y63.0068 F12000 ; Move to start next pattern perimeter
G1 E0.5 F3600 ; Un-retract
G1 X73.6693 Y84.22 E1.13812 F9000 ; Print pattern perimeter
G1 X52.4561 Y105.4332 E1.13812 F9000 ; Print pattern perimeter
G1 E-0.5 F3600 ; Retract
G0 X55.9161 Y63.0068 F12000 ; Move to next pattern
G1 E0.5 F3600 ; Un-retract
SET_PRESSURE_ADVANCE ADVANCE=0.025 ; Set pressure advance
M117 PA 0.025
G1 X77.1293 Y84.22 E1.13812 F9000 ; Print pattern perimeter
G1 X55.9161 Y105.4332 E1.13812 F9000 ; Print pattern perimeter
G1 E-0.5 F3600 ; Retract
G0 X56.5059 Y63.0068 F12000 ; Move to start next pattern perimeter
G1 E0.5 F3600 ; Un-retract
G1 X77.7191 Y84.22 E1.13812 F9000 ; Print pattern perimeter
G1 X56.5059 Y105.4332 E1.13812 F9000 ; Print pattern perimeter
G1 E-0.5 F3600 ; Retract
G0 X57.0957 Y63.0068 F12000 ; Move to start next pattern perimeter
G1 E0.5 F3600 ; Un-retract
G1 X78.309 Y84.22 E1.13812 F9000 ; Print pattern perimeter
G1 X57.0957 Y105.4332 E1.13812 F9000 ; Print pattern perimeter
G1 E-0.5 F3600 ; Retract
G0 X60.5557 Y63.0068 F12000 ; Move to next pattern
G1 E0.5 F3600 ; Un-retract
SET_PRESSURE_ADVANCE ADVANCE=0.03 ; Set pressure advance
M117 PA 0.03
G1 X81.769 Y84.22 E1.13812 F9000 ; Print pattern perimeter
G1 X60.5557 Y105.4332 E1.13812 F9000 ; Print pattern perimeter
G1 E-0.5 F3600 ; Retract
G0 X61.1456 Y63.0068 F12000 ; Move to start next pattern perimeter
G1 E0.5 F3600 ; Un-retract
G1 X82.3588 Y84.22 E1.13812 F9000 ; Print pattern perimeter
G1 X61.1456 Y105.4332 E1.13812 F9000 ; Print pattern perimeter
G1 E-0.5 F3600 ; Retract
G0 X61.7354 Y63.0068 F12000 ; Move to start next pattern perimeter
G1 E0.5 F3600 ; Un-retract
G1 X82.9486 Y84.22 E1.13812 F9000 ; Print pattern perimeter
G1 X61.7354 Y105.4332 E1.13812 F9000 ; Print pattern perimeter
G1 E-0.5 F3600 ; Retract
G0 X65.1954 Y63.0068 F12000 ; Move to next pattern
G1 E0.5 F3600 ; Un-retract
SET_PRESSURE_ADVANCE ADVANCE=0.035 ; Set pressure advance
M117 PA 0.035
G1 X86.4086 Y84.22 E1.13812 F9000 ; Print pattern perimeter
G1 X65.1954 Y105.4332 E1.13812 F9000 ; Print pattern perimeter
G1 E-0.5 F3600 ; Retract
G0 X65.7853 Y63.0068 F12000 ; Move to start next pattern perimeter
G1 E0.5 F3600 ; Un-retract
G1 X86.9985 Y84.22 E1.13812 F9000 ; Print pattern perimeter
G1 X65.7853 Y105.4332 E1.13812 F9000 ; Print pattern perimeter
G1 E-0.5 F3600 ; Retract
G0 X66.3751 Y63.0068 F12000 ; Move to start next pattern perimeter
G1 E0.5 F3600 ; Un-retract
G1 X87.5883 Y84.22 E1.13812 F9000 ; Print pattern perimeter
G1 X66.3751 Y105.4332 E1.13812 F9000 ; Print pattern perimeter
G1 E-0.5 F3600 ; Retract
G0 X69.8351 Y63.0068 F12000 ; Move to next pattern
G1 E0.5 F3600 ; Un-retract
SET_PRESSURE_ADVANCE ADVANCE=0.04 ; Set pressure advance
M117 PA 0.04
G1 X91.0483 Y84.22 E1.13812 F9000 ; Print pattern perimeter
G1 X69.8351 Y105.4332 E1.13812 F9000 ; Print pattern perimeter
G1 E-0.5 F3600 ; Retract
G0 X70.4249 Y63.0068 F12000 ; Move to start next pattern perimeter
G1 E0.5 F3600 ; Un-retract
G1 X91.6381 Y84.22 E1.13812 F9000 ; Print pattern perimeter
G1 X70.4249 Y105.4332 E1.13812 F9000 ; Print pattern perimeter
G1 E-0.5 F3600 ; Retract
G0 X71.0148 Y63.0068 F12000 ; Move to start next pattern perimeter
G1 E0.5 F3600 ; Un-retract
G1 X92.228 Y84.22 E1.13812 F9000 ; Print pattern perimeter
G1 X71.0148 Y105.4332 E1.13812 F9000 ; Print pattern perimeter
G1 E-0.5 F3600 ; Retract
G0 X74.4748 Y63.0068 F12000 ; Move to next pattern
G1 E0.5 F3600 ; Un-retract
SET_PRESSURE_ADVANCE ADVANCE=0.045 ; Set pressure advance
M117 PA 0.045
G1 X95.688 Y84.22 E1.13812 F9000 ; Print pattern perimeter
G1 X74.4748 Y105.4332 E1.13812 F9000 ; Print pattern perimeter
G1 E-0.5 F3600 ; Retract
G0 X75.0646 Y63.0068 F12000 ; Move to start next pattern perimeter
G1 E0.5 F3600 ; Un-retract
G1 X96.2778 Y84.22 E1.13812 F9000 ; Print pattern perimeter
G1 X75.0646 Y105.4332 E1.13812 F9000 ; Print pattern perimeter
G1 E-0.5 F3600 ; Retract
G0 X75.6545 Y63.0068 F12000 ; Move to start next pattern perimeter
G1 E0.5 F3600 ; Un-retract
G1 X96.8677 Y84.22 E1.13812 F9000 ; Print pattern perimeter
G1 X75.6545 Y105.4332 E1.13812 F9000 ; Print pattern perimeter
G1 E-0.5 F3600 ; Retract
G0 X79.1145 Y63.0068 F12000 ; Move to next pattern
G1 E0.5 F3600 ; Un-retract
SET_PRESSURE_ADVANCE ADVANCE=0.05 ; Set pressure advance
M117 PA 0.05
G1 X100.3277 Y84.22 E1.13812 F9000 ; Print pattern perimeter
G1 X79.1145 Y105.4332 E1.13812 F9000 ; Print pattern perimeter
G1 E-0.5 F3600 ; Retract
G0 X79.7043 Y63.0068 F12000 ; Move to start next pattern perimeter
G1 E0.5 F3600 ; Un-retract
G1 X100.9175 Y84.22 E1.13812 F9000 ; Print pattern perimeter
G1 X79.7043 Y105.4332 E1.13812 F9000 ; Print pattern perimeter
G1 E-0.5 F3600 ; Retract
G0 X80.2941 Y63.0068 F12000 ; Move to start next pattern perimeter
G1 E0.5 F3600 ; Un-retract
G1 X101.5073 Y84.22 E1.13812 F9000 ; Print pattern perimeter
G1 X80.2941 Y105.4332 E1.13812 F9000 ; Print pattern perimeter
G1 E-0.5 F3600 ; Retract
G0 X83.7541 Y63.0068 F12000 ; Move to next pattern
G1 E0.5 F3600 ; Un-retract
SET_PRESSURE_ADVANCE ADVANCE=0.055 ; Set pressure advance
M117 PA 0.055
G1 X104.9673 Y84.22 E1.13812 F9000 ; Print pattern perimeter
G1 X83.7541 Y105.4332 E1.13812 F9000 ; Print pattern perimeter
G1 E-0.5 F3600 ; Retract
G0 X84.344 Y63.0068 F12000 ; Move to start next pattern perimeter
G1 E0.5 F3600 ; Un-retract
G1 X105.5572 Y84.22 E1.13812 F9000 ; Print pattern perimeter
G1 X84.344 Y105.4332 E1.13812 F9000 ; Print pattern perimeter
G1 E-0.5 F3600 ; Retract
G0 X84.9338 Y63.0068 F12000 ; Move to start next pattern perimeter
G1 E0.5 F3600 ; Un-retract
G1 X106.147 Y84.22 E1.13812 F9000 ; Print pattern perimeter
G1 X84.9338 Y105.4332 E1.13812 F9000 ; Print pattern perimeter
G1 E-0.5 F3600 ; Retract
G0 X88.3938 Y63.0068 F12000 ; Move to next pattern
G1 E0.5 F3600 ; Un-retract
SET_PRESSURE_ADVANCE ADVANCE=0.06 ; Set pressure advance
M117 PA 0.06
G1 X109.607 Y84.22 E1.13812 F9000 ; Print pattern perimeter
G1 X88.3938 Y105.4332 E1.13812 F9000 ; Print pattern perimeter
G1 E-0.5 F3600 ; Retract
G0 X88.9837 Y63.0068 F12000 ; Move to start next pattern perimeter
G1 E0.5 F3600 ; Un-retract
G1 X110.1969 Y84.22 E1.13812 F9000 ; Print pattern perimeter
G1 X88.9837 Y105.4332 E1.13812 F9000 ; Print pattern perimeter
G1 E-0.5 F3600 ; Retract
G0 X89.5735 Y63.0068 F12000 ; Move to start next pattern perimeter
G1 E0.5 F3600 ; Un-retract
G1 X110.7867 Y84.22 E1.13812 F9000 ; Print pattern perimeter
G1 X89.5735 Y105.4332 E1.13812 F9000 ; Print pattern perimeter
G1 E-0.5 F3600 ; Retract
G0 X93.0335 Y63.0068 F12000 ; Move to next pattern
G1 E0.5 F3600 ; Un-retract
SET_PRESSURE_ADVANCE ADVANCE=0.065 ; Set pressure advance
M117 PA 0.065
G1 X114.2467 Y84.22 E1.13812 F9000 ; Print pattern perimeter
G1 X93.0335 Y105.4332 E1.13812 F9000 ; Print pattern perimeter
G1 E-0.5 F3600 ; Retract
G0 X93.6233 Y63.0068 F12000 ; Move to start next pattern perimeter
G1 E0.5 F3600 ; Un-retract
G1 X114.8365 Y84.22 E1.13812 F9000 ; Print pattern perimeter
G1 X93.6233 Y105.4332 E1.13812 F9000 ; Print pattern perimeter
G1 E-0.5 F3600 ; Retract
G0 X94.2132 Y63.0068 F12000 ; Move to start next pattern perimeter
G1 E0.5 F3600 ; Un-retract
G1 X115.4264 Y84.22 E1.13812 F9000 ; Print pattern perimeter
G1 X94.2132 Y105.4332 E1.13812 F9000 ; Print pattern perimeter
G1 E-0.5 F3600 ; Retract
G0 X97.6732 Y63.0068 F12000 ; Move to next pattern
G1 E0.5 F3600 ; Un-retract
SET_PRESSURE_ADVANCE ADVANCE=0.07 ; Set pressure advance
M117 PA 0.07
G1 X118.8864 Y84.22 E1.13812 F9000 ; Print pattern perimeter
G1 X97.6732 Y105.4332 E1.13812 F9000 ; Print pattern perimeter
G1 E-0.5 F3600 ; Retract
G0 X98.263 Y63.0068 F12000 ; Move to start next pattern perimeter
G1 E0.5 F3600 ; Un-retract
G1 X119.4762 Y84.22 E1.13812 F9000 ; Print pattern perimeter
G1 X98.263 Y105.4332 E1.13812 F9000 ; Print pattern perimeter
G1 E-0.5 F3600 ; Retract
G0 X98.8529 Y63.0068 F12000 ; Move to start next pattern perimeter
G1 E0.5 F3600 ; Un-retract
G1 X120.0661 Y84.22 E1.13812 F9000 ; Print pattern perimeter
G1 X98.8529 Y105.4332 E1.13812 F9000 ; Print pattern perimeter
G1 E-0.5 F3600 ; Retract
G0 X102.3129 Y63.0068 F12000 ; Move to next pattern
G1 E0.5 F3600 ; Un-retract
SET_PRESSURE_ADVANCE ADVANCE=0.075 ; Set pressure advance
M117 PA 0.075
G1 X123.5261 Y84.22 E1.13812 F9000 ; Print pattern perimeter
G1 X102.3129 Y105.4332 E1.13812 F9000 ; Print pattern perimeter
G1 E-0.5 F3600 ; Retract
G0 X102.9027 Y63.0068 F12000 ; Move to start next pattern perimeter
G1 E0.5 F3600 ; Un-retract
G1 X124.1159 Y84.22 E1.13812 F9000 ; Print pattern perimeter
G1 X102.9027 Y105.4332 E1.13812 F9000 ; Print pattern perimeter
G1 E-0.5 F3600 ; Retract
G0 X103.4925 Y63.0068 F12000 ; Move to start next pattern perimeter
G1 E0.5 F3600 ; Un-retract
G1 X124.7057 Y84.22 E1.13812 F9000 ; Print pattern perimeter
G1 X103.4925 Y105.4332 E1.13812 F9000 ; Print pattern perimeter
G1 E-0.5 F3600 ; Retract
G0 X106.9525 Y63.0068 F12000 ; Move to next pattern
G1 E0.5 F3600 ; Un-retract
SET_PRESSURE_ADVANCE ADVANCE=0.08 ; Set pressure advance
M117 PA 0.08
G1 X128.1657 Y84.22 E1.13812 F9000 ; Print pattern perimeter
G1 X106.9525 Y105.4332 E1.13812 F9000 ; Print pattern perimeter
G1 E-0.5 F3600 ; Retract
G0 X107.5424 Y63.0068 F12000 ; Move to start next pattern perimeter
G1 E0.5 F3600 ; Un-retract
G1 X128.7556 Y84.22 E1.13812 F9000 ; Print pattern perimeter
G1 X107.5424 Y105.4332 E1.13812 F9000 ; Print pattern perimeter
G1 E-0.5 F3600 ; Retract
G0 X108.1322 Y63.0068 F12000 ; Move to start next pattern perimeter
G1 E0.5 F3600 ; Un-retract
G1 X129.3454 Y84.22 E1.13812 F9000 ; Print pattern perimeter
G1 X108.1322 Y105.4332 E1.13812 F9000 ; Print pattern perimeter
G1 E-0.5 F3600 ; Retract
G0 X111.5922 Y63.0068 F12000 ; Move to next pattern
G1 E0.5 F3600 ; Un-retract
SET_PRESSURE_ADVANCE ADVANCE=0.085 ; Set pressure advance
M117 PA 0.085
G1 X132.8054 Y84.22 E1.13812 F9000 ; Print pattern perimeter
G1 X111.5922 Y105.4332 E1.13812 F9000 ; Print pattern perimeter
G1 E-0.5 F3600 ; Retract
G0 X112.1821 Y63.0068 F12000 ; Move to start next pattern perimeter
G1 E0.5 F3600 ; Un-retract
G1 X133.3953 Y84.22 E1.13812 F9000 ; Print pattern perimeter
G1 X112.1821 Y105.4332 E1.13812 F9000 ; Print pattern perimeter
G1 E-0.5 F3600 ; Retract
G0 X112.7719 Y63.0068 F12000 ; Move to start next pattern perimeter
G1 E0.5 F3600 ; Un-retract
G1 X133.9851 Y84.22 E1.13812 F9000 ; Print pattern perimeter
G1 X112.7719 Y105.4332 E1.13812 F9000 ; Print pattern perimeter
G1 E-0.5 F3600 ; Retract
G0 X116.2319 Y63.0068 F12000 ; Move to next pattern
G1 E0.5 F3600 ; Un-retract
SET_PRESSURE_ADVANCE ADVANCE=0.09 ; Set pressure advance
M117 PA 0.09
G1 X137.4451 Y84.22 E1.13812 F9000 ; Print pattern perimeter
G1 X116.2319 Y105.4332 E1.13812 F9000 ; Print pattern perimeter
G1 E-0.5 F3600 ; Retract
G0 X116.8217 Y63.0068 F12000 ; Move to start next pattern perimeter
G1 E0.5 F3600 ; Un-retract
G1 X138.0349 Y84.22 E1.13812 F9000 ; Print pattern perimeter
G1 X116.8217 Y105.4332 E1.13812 F9000 ; Print pattern perimeter
G1 E-0.5 F3600 ; Retract
G0 X117.4116 Y63.0068 F12000 ; Move to start next pattern perimeter
G1 E0.5 F3600 ; Un-retract
G1 X138.6248 Y84.22 E1.13812 F9000 ; Print pattern perimeter
G1 X117.4116 Y105.4332 E1.13812 F9000 ; Print pattern perimeter
G1 E-0.5 F3600 ; Retract
G0 X120.8716 Y63.0068 F12000 ; Move to next pattern
G1 E0.5 F3600 ; Un-retract
SET_PRESSURE_ADVANCE ADVANCE=0.095 ; Set pressure advance
M117 PA 0.095
G1 X142.0848 Y84.22 E1.13812 F9000 ; Print pattern perimeter
G1 X120.8716 Y105.4332 E1.13812 F9000 ; Print pattern perimeter
G1 E-0.5 F3600 ; Retract
G0 X121.4614 Y63.0068 F12000 ; Move to start next pattern perimeter
G1 E0.5 F3600 ; Un-retract
G1 X142.6746 Y84.22 E1.13812 F9000 ; Print pattern perimeter
G1 X121.4614 Y105.4332 E1.13812 F9000 ; Print pattern perimeter
G1 E-0.5 F3600 ; Retract
G0 X122.0513 Y63.0068 F12000 ; Move to start next pattern perimeter
G1 E0.5 F3600 ; Un-retract
G1 X143.2645 Y84.22 E1.13812 F9000 ; Print pattern perimeter
G1 X122.0513 Y105.4332 E1.13812 F9000 ; Print pattern perimeter
G1 E-0.5 F3600 ; Retract
G0 X125.5113 Y63.0068 F12000 ; Move to next pattern
G1 E0.5 F3600 ; Un-retract
SET_PRESSURE_ADVANCE ADVANCE=0.1 ; Set pressure advance
M117 PA 0.1
G1 X146.7245 Y84.22 E1.13812 F9000 ; Print pattern perimeter
G1 X125.5113 Y105.4332 E1.13812 F9000 ; Print pattern perimeter
G1 E-0.5 F3600 ; Retract
G0 X126.1011 Y63.0068 F12000 ; Move to start next pattern perimeter
G1 E0.5 F3600 ; Un-retract
G1 X147.3143 Y84.22 E1.13812 F9000 ; Print pattern perimeter
G1 X126.1011 Y105.4332 E1.13812 F9000 ; Print pattern perimeter
G1 E-0.5 F3600 ; Retract
G0 X126.6909 Y63.0068 F12000 ; Move to start next pattern perimeter
G1 E0.5 F3600 ; Un-retract
G1 X147.9041 Y84.22 E1.13812 F9000 ; Print pattern perimeter
G1 X126.6909 Y105.4332 E1.13812 F9000 ; Print pattern perimeter
G1 E-0.5 F3600 ; Retract
G0 X32.7177 Y63.0068 F12000 ; Move back to start position
G1 E0.5 F3600 ; Un-retract
G0 Z1.05 F12000 ; Move to layer height
SET_PRESSURE_ADVANCE ADVANCE=0 ; Set pressure advance
M117 PA 0
G1 X53.9309 Y84.22 E1.13812 F9000 ; Print pattern perimeter
G1 X32.7177 Y105.4332 E1.13812 F9000 ; Print pattern perimeter
G1 E-0.5 F3600 ; Retract
G0 X33.3075 Y63.0068 F12000 ; Move to start next pattern perimeter
G1 E0.5 F3600 ; Un-retract
G1 X54.5207 Y84.22 E1.13812 F9000 ; Print pattern perimeter
G1 X33.3075 Y105.4332 E1.13812 F9000 ; Print pattern perimeter
G1 E-0.5 F3600 ; Retract
G0 X33.8974 Y63.0068 F12000 ; Move to start next pattern perimeter
G1 E0.5 F3600 ; Un-retract
G1 X55.1106 Y84.22 E1.13812 F9000 ; Print pattern perimeter
G1 X33.8974 Y105.4332 E1.13812 F9000 ; Print pattern perimeter
G1 E-0.5 F3600 ; Retract
G0 X37.3574 Y63.0068 F12000 ; Move to next pattern
G1 E0.5 F3600 ; Un-retract
SET_PRESSURE_ADVANCE ADVANCE=0.005 ; Set pressure advance
M117 PA 0.005
G1 X58.5706 Y84.22 E1.13812 F9000 ; Print pattern perimeter
G1 X37.3574 Y105.4332 E1.13812 F9000 ; Print pattern perimeter
G1 E-0.5 F3600 ; Retract
G0 X37.9472 Y63.0068 F12000 ; Move to start next pattern perimeter
G1 E0.5 F3600 ; Un-retract
G1 X59.1604 Y84.22 E1.13812 F9000 ; Print pattern perimeter
G1 X37.9472 Y105.4332 E1.13812 F9000 ; Print pattern perimeter
G1 E-0.5 F3600 ; Retract
G0 X38.537 Y63.0068 F12000 ; Move to start next pattern perimeter
G1 E0.5 F3600 ; Un-retract
G1 X59.7502 Y84.22 E1.13812 F9000 ; Print pattern perimeter
G1 X38.537 Y105.4332 E1.13812 F9000 ; Print pattern perimeter
G1 E-0.5 F3600 ; Retract
G0 X41.997 Y63.0068 F12000 ; Move to next pattern
G1 E0.5 F3600 ; Un-retract
SET_PRESSURE_ADVANCE ADVANCE=0.01 ; Set pressure advance
M117 PA 0.01
G1 X63.2102 Y84.22 E1.13812 F9000 ; Print pattern perimeter
G1 X41.997 Y105.4332 E1.13812 F9000 ; Print pattern perimeter
G1 E-0.5 F3600 ; Retract
G0 X42.5869 Y63.0068 F12000 ; Move to start next pattern perimeter
G1 E0.5 F3600 ; Un-retract
G1 X63.8001 Y84.22 E1.13812 F9000 ; Print pattern perimeter
G1 X42.5869 Y105.4332 E1.13812 F9000 ; Print pattern perimeter
G1 E-0.5 F3600 ; Retract
G0 X43.1767 Y63.0068 F12000 ; Move to start next pattern perimeter
G1 E0.5 F3600 ; Un-retract
G1 X64.3899 Y84.22 E1.13812 F9000 ; Print pattern perimeter
G1 X43.1767 Y105.4332 E1.13812 F9000 ; Print pattern perimeter
G1 E-0.5 F3600 ; Retract
G0 X46.6367 Y63.0068 F12000 ; Move to next pattern
G1 E0.5 F3600 ; Un-retract
SET_PRESSURE_ADVANCE ADVANCE=0.015 ; Set pressure advance
M117 PA 0.015
G1 X67.8499 Y84.22 E1.13812 F9000 ; Print pattern perimeter
G1 X46.6367 Y105.4332 E1.13812 F9000 ; Print pattern perimeter
G1 E-0.5 F3600 ; Retract
G0 X47.2265 Y63.0068 F12000 ; Move to start next pattern perimeter
G1 E0.5 F3600 ; Un-retract
G1 X68.4398 Y84.22 E1.13812 F9000 ; Print pattern perimeter
G1 X47.2265 Y105.4332 E1.13812 F9000 ; Print pattern perimeter
G1 E-0.5 F3600 ; Retract
G0 X47.8164 Y63.0068 F12000 ; Move to start next pattern perimeter
G1 E0.5 F3600 ; Un-retract
G1 X69.0296 Y84.22 E1.13812 F9000 ; Print pattern perimeter
G1 X47.8164 Y105.4332 E1.13812 F9000 ; Print pattern perimeter
G1 E-0.5 F3600 ; Retract
G0 X51.2764 Y63.0068 F12000 ; Move to next pattern
G1 E0.5 F3600 ; Un-retract
SET_PRESSURE_ADVANCE ADVANCE=0.02 ; Set pressure advance
M117 PA 0.02
G1 X72.4896 Y84.22 E1.13812 F9000 ; Print pattern perimeter
G1 X51.2764 Y105.4332 E1.13812 F9000 ; Print pattern perimeter
G1 E-0.5 F3600 ; Retract
G0 X51.8662 Y63.0068 F12000 ; Move to start next pattern perimeter
G1 E0.5 F3600 ; Un-retract
G1 X73.0794 Y84.22 E1.13812 F9000 ; Print pattern perimeter
G1 X51.8662 Y105.4332 E1.13812 F9000 ; Print pattern perimeter
G1 E-0.5 F3600 ; Retract
G0 X52.4561 Y63.0068 F12000 ; Move to start next pattern perimeter
G1 E0.5 F3600 ; Un-retract
G1 X73.6693 Y84.22 E1.13812 F9000 ; Print pattern perimeter
G1 X52.4561 Y105.4332 E1.13812 F9000 ; Print pattern perimeter
G1 E-0.5 F3600 ; Retract
G0 X55.9161 Y63.0068 F12000 ; Move to next pattern
G1 E0.5 F3600 ; Un-retract
SET_PRESSURE_ADVANCE ADVANCE=0.025 ; Set pressure advance
M117 PA 0.025
G1 X77.1293 Y84.22 E1.13812 F9000 ; Print pattern perimeter
G1 X55.9161 Y105.4332 E1.13812 F9000 ; Print pattern perimeter
G1 E-0.5 F3600 ; Retract
G0 X56.5059 Y63.0068 F12000 ; Move to start next pattern perimeter
G1 E0.5 F3600 ; Un-retract
G1 X77.7191 Y84.22 E1.13812 F9000 ; Print pattern perimeter
G1 X56.5059 Y105.4332 E1.13812 F9000 ; Print pattern perimeter
G1 E-0.5 F3600 ; Retract
G0 X57.0957 Y63.0068 F12000 ; Move to start next pattern perimeter
G1 E0.5 F3600 ; Un-retract
G1 X78.309 Y84.22 E1.13812 F9000 ; Print pattern perimeter
G1 X57.0957 Y105.4332 E1.13812 F9000 ; Print pattern perimeter
G1 E-0.5 F3600 ; Retract
G0 X60.5557 Y63.0068 F12000 ; Move to next pattern
G1 E0.5 F3600 ; Un-retract
SET_PRESSURE_ADVANCE ADVANCE=0.03 ; Set pressure advance
M117 PA 0.03
G1 X81.769 Y84.22 E1.13812 F9000 ; Print pattern perimeter
G1 X60.5557 Y105.4332 E1.13812 F9000 ; Print pattern perimeter
G1 E-0.5 F3600 ; Retract
G0 X61.1456 Y63.0068 F12000 ; Move to start next pattern perimeter
G1 E0.5 F3600 ; Un-retract
G1 X82.3588 Y84.22 E1.13812 F9000 ; Print pattern perimeter
G1 X61.1456 Y105.4332 E1.13812 F9000 ; Print pattern perimeter
G1 E-0.5 F3600 ; Retract
G0 X61.7354 Y63.0068 F12000 ; Move to start next pattern perimeter
G1 E0.5 F3600 ; Un-retract
G1 X82.9486 Y84.22 E1.13812 F9000 ; Print pattern perimeter
G1 X61.7354 Y105.4332 E1.13812 F9000 ; Print pattern perimeter
G1 E-0.5 F3600 ; Retract
